;FLAVOR:Marlin
;TIME:7014
;Filament used: 4.55501m
;Layer height: 0.16
;MINX:104.295
;MINY:118.706
;MINZ:0.2
;MAXX:172.798
;MAXY:190.45
;MAXZ:12.88
;Generated with Cura_SteamEngine 4.9.1
M140 S50
M105
M190 S50
M104 S200
M105
M109 S200
M82 ;absolute extrusion mode
M201 X500.00 Y500.00 Z100.00 E5000.00 ;Setup machine max acceleration
M203 X500.00 Y500.00 Z10.00 E50.00 ;Setup machine max feedrate
M204 P500.00 R1000.00 T500.00 ;Setup Print/Retract/Travel acceleration
M205 X8.00 Y8.00 Z0.40 E5.00 ;Setup Jerk
M220 S100 ;Reset Feedrate
M221 S100 ;Reset Flowrate

G28 ;Home
G29 ;Auto bed Level

G92 E0 ;Reset Extruder
G1 Z2.0 F3000 ;Move Z Axis up
G1 X10.1 Y20 Z0.28 F5000.0 ;Move to start position
G1 X10.1 Y200.0 Z0.28 F1500.0 E15 ;Draw the first line
G1 X10.4 Y200.0 Z0.28 F5000.0 ;Move to side a little
G1 X10.4 Y20 Z0.28 F1500.0 E30 ;Draw the second line
G92 E0 ;Reset Extruder
G1 Z2.0 F3000 ;Move Z Axis up

G92 E0
G92 E0
G1 F2700 E-5
;LAYER_COUNT:66
;LAYER:0
M107
G0 F6000 X118.44 Y131.229 Z0.2
;TYPE:SKIRT
G1 F2700 E0
G1 F1200 X118.989 Y130.753 E0.02417
G1 X119.367 Y130.455 E0.04018
G1 X119.987 Y130.013 E0.0655
G1 X120.377 Y129.763 E0.08091
G1 X121.002 Y129.402 E0.10492
G1 X121.435 Y129.178 E0.12113
G1 X122.119 Y128.865 E0.14615
G1 X122.561 Y128.688 E0.16198
G1 X123.295 Y128.436 E0.1878
G1 X123.755 Y128.303 E0.20372
G1 X124.43 Y128.14 E0.22682
G1 X124.892 Y128.05 E0.24247
G1 X125.636 Y127.942 E0.26748
G1 X126.104 Y127.897 E0.28312
G1 X126.851 Y127.861 E0.30799
G1 X127.334 Y127.861 E0.32406
G1 X128.094 Y127.898 E0.34936
G1 X128.574 Y127.945 E0.3654
G1 X129.318 Y128.054 E0.39041
G1 X129.776 Y128.144 E0.40594
G1 X130.437 Y128.304 E0.42856
G1 X130.887 Y128.434 E0.44414
G1 X131.236 Y128.555 E0.45642
G1 X131.423 Y128.285 E0.46735
G1 X131.916 Y127.618 E0.49493
G1 X132.185 Y127.275 E0.50943
G1 X132.71 Y126.642 E0.53678
G1 X132.984 Y126.329 E0.55062
G1 X133.551 Y125.715 E0.57842
G1 X133.861 Y125.398 E0.59316
G1 X134.453 Y124.826 E0.62054
G1 X134.759 Y124.545 E0.63436
G1 X135.381 Y124.005 E0.66176
G1 X135.728 Y123.721 E0.67667
G1 X136.373 Y123.223 E0.70377
G1 X136.702 Y122.983 E0.71732
G1 X137.39 Y122.507 E0.74515
G1 X137.766 Y122.262 E0.76007
G1 X138.466 Y121.835 E0.78734
G1 X138.828 Y121.627 E0.80123
G1 X139.55 Y121.238 E0.82851
G1 X139.936 Y121.044 E0.84288
G1 X140.686 Y120.692 E0.87043
G1 X141.07 Y120.524 E0.88437
G1 X141.825 Y120.218 E0.91147
G1 X142.226 Y120.068 E0.92571
G1 X143.005 Y119.801 E0.9531
G1 X143.427 Y119.67 E0.96779
G1 X144.229 Y119.445 E0.9955
G1 X144.63 Y119.344 E1.00925
G1 X145.433 Y119.164 E1.03662
G1 X145.857 Y119.081 E1.05099
G1 X146.661 Y118.947 E1.0781
G1 X147.095 Y118.887 E1.09267
G1 X147.918 Y118.797 E1.12021
G1 X148.342 Y118.763 E1.13436
G1 X149.168 Y118.718 E1.16187
G1 X149.592 Y118.706 E1.17598
G1 X150.408 Y118.706 E1.20312
G1 X150.839 Y118.718 E1.21746
G1 X151.671 Y118.764 E1.24518
G1 X152.088 Y118.798 E1.25909
G1 X152.911 Y118.888 E1.28663
G1 X153.347 Y118.948 E1.30127
G1 X154.15 Y119.082 E1.32834
G1 X154.57 Y119.164 E1.34258
G1 X155.374 Y119.344 E1.36998
G1 X155.783 Y119.448 E1.38402
G1 X156.579 Y119.672 E1.41152
G1 X156.997 Y119.802 E1.42608
G1 X157.781 Y120.071 E1.45365
G1 X158.18 Y120.22 E1.46781
G1 X158.935 Y120.526 E1.49491
G1 X159.322 Y120.695 E1.50895
G1 X160.069 Y121.046 E1.5364
G1 X160.455 Y121.241 E1.55079
G1 X161.178 Y121.631 E1.57811
G1 X161.545 Y121.842 E1.59219
G1 X162.248 Y122.272 E1.6196
G1 X162.606 Y122.504 E1.63379
G1 X163.292 Y122.977 E1.6615
G1 X163.637 Y123.23 E1.67573
G1 X164.282 Y123.729 E1.70286
G1 X164.622 Y124.007 E1.71746
G1 X165.243 Y124.546 E1.74481
G1 X165.559 Y124.837 E1.7591
G1 X166.15 Y125.41 E1.78648
G1 X166.445 Y125.711 E1.8005
G1 X167.006 Y126.317 E1.82796
G1 X167.283 Y126.633 E1.84194
G1 X167.807 Y127.264 E1.86922
G1 X168.084 Y127.618 E1.88417
G1 X168.581 Y128.292 E1.91202
G1 X168.818 Y128.632 E1.92581
G1 X169.267 Y129.314 E1.95297
G1 X169.488 Y129.67 E1.9669
G1 X169.909 Y130.391 E1.99467
G1 X170.126 Y130.79 E2.00978
G1 X170.493 Y131.512 E2.03672
G1 X170.663 Y131.867 E2.04981
G1 X170.996 Y132.613 E2.07698
G1 X171.17 Y133.037 E2.09222
G1 X171.463 Y133.813 E2.11981
G1 X171.599 Y134.204 E2.13358
G1 X171.849 Y134.99 E2.16101
G1 X171.971 Y135.416 E2.17575
G1 X172.178 Y136.223 E2.20346
G1 X172.269 Y136.62 E2.21701
G1 X172.43 Y137.419 E2.24412
G1 X172.506 Y137.858 E2.25894
G1 X172.624 Y138.685 E2.28672
G1 X172.672 Y139.105 E2.30078
G1 X172.743 Y139.914 E2.32779
G1 X172.769 Y140.341 E2.34202
G1 X172.796 Y141.165 E2.36944
G1 X172.798 Y141.598 E2.38384
G1 X172.779 Y142.432 E2.41159
G1 X172.758 Y142.85 E2.42551
G1 X172.696 Y143.659 E2.4525
G1 X172.65 Y144.101 E2.46728
G1 X172.54 Y144.92 E2.49476
G1 X172.475 Y145.32 E2.50824
G1 X172.321 Y146.141 E2.53602
G1 X172.226 Y146.579 E2.55093
G1 X172.031 Y147.366 E2.5779
G1 X171.916 Y147.782 E2.59225
G1 X171.675 Y148.566 E2.61953
G1 X171.543 Y148.956 E2.63323
G1 X171.257 Y149.737 E2.66089
G1 X171.178 Y149.944 E2.66826
G1 X161.89 Y173.24 E3.5024
G1 X161.745 Y173.58 E3.51469
G1 X161.544 Y174.022 E3.53084
G1 X161.199 Y174.693 E3.55594
G1 X160.964 Y175.1 E3.57157
G1 X160.551 Y175.741 E3.59693
G1 X160.271 Y176.132 E3.61293
G1 X159.841 Y176.679 E3.63607
G1 X159.532 Y177.038 E3.65182
G1 X158.987 Y177.61 E3.6781
G1 X158.64 Y177.939 E3.694
G1 X158.09 Y178.414 E3.71817
G1 X157.713 Y178.71 E3.73412
G1 X157.117 Y179.134 E3.75844
G1 X156.727 Y179.385 E3.77387
G1 X156.084 Y179.757 E3.79858
G1 X155.652 Y179.98 E3.81475
G1 X154.971 Y180.291 E3.83965
G1 X154.531 Y180.467 E3.85541
G1 X153.824 Y180.711 E3.88028
G1 X153.359 Y180.847 E3.8964
G1 X152.654 Y181.018 E3.92053
G1 X152.195 Y181.107 E3.93608
G1 X151.442 Y181.216 E3.96138
G1 X150.975 Y181.26 E3.97698
G1 X150.243 Y181.294 E4.00136
G1 X149.757 Y181.294 E4.01752
G1 X149.008 Y181.258 E4.04246
G1 X148.531 Y181.212 E4.0584
G1 X147.789 Y181.104 E4.08334
G1 X147.332 Y181.015 E4.09883
G1 X146.639 Y180.847 E4.12254
G1 X146.183 Y180.714 E4.13834
G1 X145.857 Y180.602 E4.14981
G1 X145.666 Y180.876 E4.16092
G1 X145.173 Y181.542 E4.18847
G1 X144.912 Y181.876 E4.20257
G1 X144.387 Y182.51 E4.22995
G1 X144.102 Y182.835 E4.24433
G1 X143.539 Y183.443 E4.27189
G1 X143.241 Y183.747 E4.28605
G1 X142.645 Y184.324 E4.31364
G1 X142.328 Y184.615 E4.32795
G1 X141.714 Y185.147 E4.35497
G1 X141.385 Y185.417 E4.36913
G1 X140.731 Y185.924 E4.39665
G1 X140.386 Y186.176 E4.41086
G1 X139.7 Y186.65 E4.43859
G1 X139.324 Y186.894 E4.4535
G1 X138.623 Y187.321 E4.4808
G1 X138.283 Y187.517 E4.49386
G1 X137.56 Y187.909 E4.52121
G1 X137.141 Y188.12 E4.53681
G1 X136.391 Y188.47 E4.56434
G1 X136.027 Y188.629 E4.57755
G1 X135.271 Y188.936 E4.60469
G1 X134.862 Y189.089 E4.61921
G1 X134.085 Y189.355 E4.64653
G1 X133.666 Y189.485 E4.66112
G1 X132.864 Y189.71 E4.68883
G1 X132.461 Y189.812 E4.70265
G1 X131.657 Y189.992 E4.73006
G1 X131.237 Y190.074 E4.74429
G1 X130.434 Y190.208 E4.77137
G1 X129.998 Y190.268 E4.786
G1 X129.175 Y190.358 E4.81354
G1 X128.761 Y190.392 E4.82736
G1 X127.935 Y190.438 E4.85487
G1 X127.501 Y190.45 E4.86931
G1 X126.685 Y190.45 E4.89645
G1 X126.245 Y190.438 E4.91109
G1 X125.413 Y190.391 E4.93881
G1 X125.005 Y190.357 E4.95243
G1 X124.182 Y190.267 E4.97996
G1 X123.746 Y190.207 E4.9946
G1 X122.943 Y190.073 E5.02168
G1 X122.523 Y189.991 E5.03591
G1 X121.719 Y189.811 E5.06331
G1 X121.313 Y189.708 E5.07725
G1 X120.516 Y189.484 E5.10478
G1 X120.092 Y189.352 E5.11955
G1 X119.309 Y189.083 E5.14709
G1 X118.918 Y188.937 E5.16097
G1 X118.164 Y188.632 E5.18802
G1 X117.775 Y188.462 E5.20214
G1 X117.025 Y188.11 E5.2297
G1 X116.629 Y187.91 E5.24445
G1 X115.904 Y187.518 E5.27186
G1 X115.541 Y187.309 E5.2858
G1 X114.842 Y186.881 E5.31306
G1 X114.487 Y186.651 E5.32713
G1 X113.801 Y186.178 E5.35484
G1 X113.451 Y185.922 E5.36926
G1 X112.798 Y185.416 E5.39674
G1 X112.467 Y185.144 E5.41099
G1 X111.851 Y184.61 E5.4381
G1 X111.526 Y184.311 E5.45279
G1 X110.936 Y183.738 E5.48015
G1 X110.653 Y183.449 E5.4936
G1 X110.086 Y182.838 E5.52132
G1 X109.792 Y182.502 E5.53617
G1 X109.267 Y181.867 E5.56358
G1 X109.009 Y181.538 E5.57748
G1 X108.519 Y180.876 E5.60488
G1 X108.261 Y180.506 E5.61988
G1 X107.814 Y179.823 E5.64703
G1 X107.608 Y179.489 E5.66008
G1 X107.187 Y178.769 E5.68782
G1 X106.97 Y178.374 E5.70281
G1 X106.6 Y177.648 E5.72991
G1 X106.416 Y177.26 E5.7442
G1 X106.08 Y176.5 E5.77183
G1 X105.917 Y176.102 E5.78614
G1 X105.63 Y175.342 E5.81316
G1 X105.493 Y174.946 E5.8271
G1 X105.24 Y174.149 E5.85491
G1 X105.121 Y173.737 E5.86917
G1 X104.916 Y172.942 E5.89648
G1 X104.82 Y172.524 E5.91074
G1 X104.658 Y171.714 E5.93822
G1 X104.584 Y171.28 E5.95286
G1 X104.468 Y170.463 E5.98031
G1 X104.421 Y170.048 E5.9942
G1 X104.35 Y169.238 E6.02124
G1 X104.324 Y168.813 E6.0354
G1 X104.297 Y167.991 E6.06276
G1 X104.295 Y167.567 E6.07686
G1 X104.313 Y166.732 E6.10464
G1 X104.335 Y166.294 E6.11922
G1 X104.398 Y165.486 E6.14618
G1 X104.443 Y165.054 E6.16063
G1 X104.553 Y164.235 E6.18811
G1 X104.618 Y163.835 E6.20159
G1 X104.772 Y163.014 E6.22937
G1 X104.867 Y162.576 E6.24428
G1 X105.062 Y161.789 E6.27125
G1 X105.177 Y161.373 E6.2856
G1 X105.418 Y160.589 E6.31288
G1 X105.548 Y160.204 E6.3264
G1 X105.833 Y159.424 E6.35402
G1 X105.914 Y159.212 E6.36157
G1 X115.202 Y135.916 E7.19571
G1 X115.35 Y135.569 E7.20825
G1 X115.552 Y135.126 E7.22445
G1 X115.891 Y134.467 E7.2491
G1 X116.125 Y134.061 E7.26468
G1 X116.544 Y133.412 E7.29038
G1 X116.825 Y133.02 E7.30642
G1 X117.249 Y132.479 E7.32928
G1 X117.549 Y132.13 E7.34459
G1 X118.086 Y131.566 E7.37049
G1 X118.44 Y131.229 E7.38674
G0 F6000 X118.716 Y131.518
G1 F1200 X119.237 Y131.067 E7.40966
G1 X119.615 Y130.769 E7.42567
G1 X120.202 Y130.35 E7.44966
G1 X120.592 Y130.1 E7.46507
G1 X121.186 Y129.757 E7.48788
G1 X121.619 Y129.533 E7.5041
G1 X122.268 Y129.236 E7.52783
G1 X122.71 Y129.059 E7.54367
G1 X123.406 Y128.82 E7.56815
G1 X123.866 Y128.687 E7.58407
G1 X124.506 Y128.533 E7.60597
G1 X124.968 Y128.443 E7.62162
G1 X125.675 Y128.34 E7.64538
G1 X126.143 Y128.295 E7.66102
G1 X126.851 Y128.261 E7.6846
G1 X127.334 Y128.261 E7.70066
G1 X128.055 Y128.296 E7.72467
G1 X128.535 Y128.343 E7.74071
G1 X129.241 Y128.447 E7.76445
G1 X129.699 Y128.537 E7.77997
G1 X130.326 Y128.689 E7.80143
G1 X130.776 Y128.819 E7.81701
G1 X131.396 Y129.033 E7.83882
G1 X131.511 Y128.858 E7.84579
G1 X131.745 Y128.523 E7.85938
G1 X132.238 Y127.856 E7.88697
G1 X132.493 Y127.53 E7.90073
G1 X133.018 Y126.897 E7.92808
G1 X133.277 Y126.601 E7.94117
G1 X133.844 Y125.987 E7.96896
G1 X134.139 Y125.685 E7.98301
G1 X134.731 Y125.113 E8.01038
G1 X135.022 Y124.847 E8.0235
G1 X135.644 Y124.307 E8.05089
G1 X135.973 Y124.038 E8.06503
G1 X136.618 Y123.54 E8.09213
G1 X136.93 Y123.312 E8.10498
G1 X137.618 Y122.836 E8.13281
G1 X137.974 Y122.604 E8.14694
G1 X138.674 Y122.177 E8.17422
G1 X139.018 Y121.979 E8.18742
G1 X139.74 Y121.59 E8.21469
G1 X140.106 Y121.406 E8.22832
G1 X140.856 Y121.054 E8.25587
G1 X141.22 Y120.895 E8.26909
G1 X141.975 Y120.589 E8.29618
G1 X142.356 Y120.447 E8.30971
G1 X143.135 Y120.18 E8.33709
G1 X143.535 Y120.055 E8.35103
G1 X144.337 Y119.83 E8.37874
G1 X144.717 Y119.734 E8.39177
G1 X145.52 Y119.554 E8.41914
G1 X145.922 Y119.476 E8.43276
G1 X146.726 Y119.342 E8.45987
G1 X147.139 Y119.285 E8.47374
G1 X147.962 Y119.195 E8.50128
G1 X148.363 Y119.162 E8.51466
G1 X149.189 Y119.117 E8.54217
G1 X149.592 Y119.106 E8.55558
G1 X150.408 Y119.106 E8.58272
G1 X150.817 Y119.117 E8.59633
G1 X151.649 Y119.163 E8.62405
G1 X152.044 Y119.196 E8.63723
G1 X152.867 Y119.286 E8.66477
G1 X153.281 Y119.343 E8.67866
G1 X154.084 Y119.477 E8.70574
G1 X154.483 Y119.555 E8.71926
G1 X155.287 Y119.735 E8.74667
G1 X155.675 Y119.833 E8.75998
G1 X156.471 Y120.057 E8.78748
G1 X156.868 Y120.181 E8.80131
G1 X157.652 Y120.45 E8.82888
G1 X158.03 Y120.591 E8.8423
G1 X158.785 Y120.897 E8.8694
G1 X159.152 Y121.058 E8.88273
G1 X159.899 Y121.409 E8.91018
G1 X160.265 Y121.593 E8.9238
G1 X160.988 Y121.983 E8.95112
G1 X161.336 Y122.183 E8.96447
G1 X162.039 Y122.613 E8.99188
G1 X162.379 Y122.834 E9.00537
G1 X163.065 Y123.307 E9.03309
G1 X163.392 Y123.546 E9.04656
G1 X164.037 Y124.045 E9.07368
G1 X164.36 Y124.309 E9.08755
G1 X164.981 Y124.848 E9.1149
G1 X165.281 Y125.124 E9.12846
G1 X165.872 Y125.697 E9.15584
G1 X166.151 Y125.983 E9.16913
G1 X166.712 Y126.589 E9.1966
G1 X166.975 Y126.888 E9.20984
G1 X167.499 Y127.519 E9.23712
G1 X167.762 Y127.855 E9.25131
G1 X168.259 Y128.529 E9.27917
G1 X168.484 Y128.852 E9.29226
G1 X168.933 Y129.534 E9.31942
G1 X169.142 Y129.872 E9.33263
G1 X169.563 Y130.593 E9.3604
G1 X169.77 Y130.971 E9.37474
G1 X170.137 Y131.693 E9.40168
G1 X170.297 Y132.03 E9.41408
G1 X170.63 Y132.776 E9.44126
G1 X170.796 Y133.178 E9.45572
G1 X171.089 Y133.954 E9.48331
G1 X171.218 Y134.325 E9.49637
G1 X171.468 Y135.111 E9.52381
G1 X171.584 Y135.515 E9.53779
G1 X171.791 Y136.322 E9.5655
G1 X171.877 Y136.699 E9.57836
G1 X172.038 Y137.498 E9.60547
G1 X172.11 Y137.915 E9.61954
G1 X172.228 Y138.742 E9.64733
G1 X172.274 Y139.14 E9.66065
G1 X172.345 Y139.949 E9.68766
G1 X172.369 Y140.354 E9.70116
G1 X172.396 Y141.178 E9.72858
G1 X172.398 Y141.589 E9.74225
G1 X172.379 Y142.423 E9.76999
G1 X172.359 Y142.819 E9.78318
G1 X172.297 Y143.628 E9.81017
G1 X172.253 Y144.048 E9.82421
G1 X172.143 Y144.867 E9.8517
G1 X172.082 Y145.246 E9.86447
G1 X171.928 Y146.067 E9.89225
G1 X171.838 Y146.483 E9.90641
G1 X171.643 Y147.27 E9.93337
G1 X171.533 Y147.664 E9.94698
G1 X171.292 Y148.448 E9.97426
G1 X171.168 Y148.819 E9.98727
G1 X170.882 Y149.6 E10.01493
G1 X170.807 Y149.796 E10.02191
G1 X161.519 Y173.092 E10.85605
G1 X161.381 Y173.414 E10.8677
G1 X161.18 Y173.856 E10.88385
G1 X160.852 Y174.493 E10.90768
G1 X160.617 Y174.9 E10.92332
G1 X160.225 Y175.508 E10.94738
G1 X159.945 Y175.899 E10.96337
G1 X159.538 Y176.418 E10.98531
G1 X159.229 Y176.777 E11.00106
G1 X158.711 Y177.32 E11.02602
G1 X158.364 Y177.649 E11.04193
G1 X157.843 Y178.099 E11.06482
G1 X157.466 Y178.395 E11.08077
G1 X156.901 Y178.798 E11.10385
G1 X156.511 Y179.049 E11.11927
G1 X155.9 Y179.402 E11.14274
G1 X155.468 Y179.625 E11.15891
G1 X154.822 Y179.92 E11.18253
G1 X154.382 Y180.096 E11.1983
G1 X153.711 Y180.327 E11.2219
G1 X153.246 Y180.463 E11.23801
G1 X152.578 Y180.626 E11.26088
G1 X152.119 Y180.715 E11.27643
G1 X151.404 Y180.817 E11.30046
G1 X150.937 Y180.861 E11.31606
G1 X150.243 Y180.894 E11.33917
G1 X149.757 Y180.894 E11.35533
G1 X149.047 Y180.86 E11.37897
G1 X148.57 Y180.814 E11.39491
G1 X147.865 Y180.712 E11.4186
G1 X147.408 Y180.623 E11.43409
G1 X146.751 Y180.463 E11.45658
G1 X146.295 Y180.33 E11.47238
G1 X145.697 Y180.124 E11.49341
G1 X145.585 Y180.294 E11.50019
G1 X145.345 Y180.638 E11.51414
G1 X144.852 Y181.304 E11.5417
G1 X144.604 Y181.621 E11.55508
G1 X144.079 Y182.255 E11.58246
G1 X143.809 Y182.563 E11.59608
G1 X143.246 Y183.171 E11.62364
G1 X142.963 Y183.46 E11.6371
G1 X142.367 Y184.037 E11.66469
G1 X142.066 Y184.313 E11.67827
G1 X141.452 Y184.845 E11.70529
G1 X141.14 Y185.1 E11.71869
G1 X140.486 Y185.607 E11.74622
G1 X140.159 Y185.847 E11.75971
G1 X139.473 Y186.321 E11.78744
G1 X139.116 Y186.553 E11.8016
G1 X138.415 Y186.98 E11.8289
G1 X138.092 Y187.165 E11.84128
G1 X137.369 Y187.557 E11.86864
G1 X136.971 Y187.758 E11.88347
G1 X136.221 Y188.108 E11.91099
G1 X135.876 Y188.258 E11.92351
G1 X135.12 Y188.565 E11.95065
G1 X134.733 Y188.71 E11.96439
G1 X133.956 Y188.976 E11.99171
G1 X133.558 Y189.1 E12.00557
G1 X132.756 Y189.325 E12.03328
G1 X132.374 Y189.421 E12.04638
G1 X131.57 Y189.601 E12.07378
G1 X131.171 Y189.679 E12.0873
G1 X130.368 Y189.813 E12.11438
G1 X129.954 Y189.87 E12.12828
G1 X129.131 Y189.96 E12.15582
G1 X128.738 Y189.993 E12.16893
G1 X127.912 Y190.039 E12.19645
G1 X127.501 Y190.05 E12.21012
G1 X126.685 Y190.05 E12.23726
G1 X126.268 Y190.038 E12.25114
G1 X125.436 Y189.991 E12.27885
G1 X125.049 Y189.959 E12.29177
G1 X124.226 Y189.869 E12.31931
G1 X123.812 Y189.812 E12.33321
G1 X123.009 Y189.678 E12.36028
G1 X122.61 Y189.6 E12.37381
G1 X121.806 Y189.42 E12.40121
G1 X121.421 Y189.323 E12.41441
G1 X120.624 Y189.099 E12.44195
G1 X120.222 Y188.974 E12.45595
G1 X119.439 Y188.705 E12.48349
G1 X119.068 Y188.566 E12.49667
G1 X118.314 Y188.261 E12.52372
G1 X117.945 Y188.1 E12.53711
G1 X117.195 Y187.748 E12.56466
