;FLAVOR:Marlin
;TIME:14564
;Filament used: 8.92896m
;Layer height: 0.16
;MINX:88.33
;MINY:88.567
;MINZ:0.2
;MAXX:211.67
;MAXY:211.623
;MAXZ:16.92
;Generated with Cura_SteamEngine 4.9.1
M140 S50
M105
M190 S50
M104 S200
M105
M109 S200
M82 ;absolute extrusion mode
M201 X500.00 Y500.00 Z100.00 E5000.00 ;Setup machine max acceleration
M203 X500.00 Y500.00 Z10.00 E50.00 ;Setup machine max feedrate
M204 P500.00 R1000.00 T500.00 ;Setup Print/Retract/Travel acceleration
M205 X8.00 Y8.00 Z0.40 E5.00 ;Setup Jerk
M220 S100 ;Reset Feedrate
M221 S100 ;Reset Flowrate

G28 ;Home
G29 ;Auto bed Level

G92 E0 ;Reset Extruder
G1 Z2.0 F3000 ;Move Z Axis up
G1 X10.1 Y20 Z0.28 F5000.0 ;Move to start position
G1 X10.1 Y200.0 Z0.28 F1500.0 E15 ;Draw the first line
G1 X10.4 Y200.0 Z0.28 F5000.0 ;Move to side a little
G1 X10.4 Y20 Z0.28 F1500.0 E30 ;Draw the second line
G92 E0 ;Reset Extruder
G1 Z2.0 F3000 ;Move Z Axis up

G92 E0
G92 E0
G1 F2700 E-5
;LAYER_COUNT:94
;LAYER:0
M107
G0 F6000 X105.698 Y107.338 Z0.2
;TYPE:SKIRT
G1 F2700 E0
G1 F1200 X107.506 Y105.545 E0.08469
G1 X107.776 Y105.289 E0.09707
G1 X109.67 Y103.582 E0.18187
G1 X109.953 Y103.339 E0.19428
G1 X111.933 Y101.719 E0.27937
G1 X112.222 Y101.494 E0.29155
G1 X114.261 Y99.98 E0.37602
G1 X114.56 Y99.768 E0.38821
G1 X116.685 Y98.34 E0.47336
G1 X116.998 Y98.14 E0.48571
G1 X119.178 Y96.821 E0.57046
G1 X119.498 Y96.638 E0.58272
G1 X121.737 Y95.424 E0.66743
G1 X122.067 Y95.255 E0.67976
G1 X124.367 Y94.146 E0.76469
G1 X124.704 Y93.993 E0.777
G1 X127.036 Y93.002 E0.86128
G1 X127.375 Y92.868 E0.8734
G1 X129.778 Y91.977 E0.95864
G1 X130.13 Y91.856 E0.97102
G1 X132.491 Y91.105 E1.05343
G1 X132.915 Y90.979 E1.06814
G1 X135.375 Y90.325 E1.1528
G1 X135.733 Y90.239 E1.16505
G1 X138.216 Y89.703 E1.24953
G1 X138.576 Y89.634 E1.26172
G1 X141.089 Y89.214 E1.34647
G1 X141.454 Y89.162 E1.35873
G1 X143.995 Y88.86 E1.44384
G1 X144.363 Y88.825 E1.45613
G1 X146.897 Y88.645 E1.54063
G1 X147.267 Y88.627 E1.55295
G1 X149.819 Y88.567 E1.63785
G1 X150.186 Y88.567 E1.65006
G1 X152.73 Y88.627 E1.73469
G1 X153.096 Y88.644 E1.74688
G1 X155.641 Y88.824 E1.83174
G1 X156.011 Y88.859 E1.8441
G1 X158.546 Y89.16 E1.92901
G1 X158.918 Y89.214 E1.94151
G1 X161.442 Y89.638 E2.02663
G1 X161.795 Y89.705 E2.03858
G1 X164.279 Y90.241 E2.1231
G1 X164.644 Y90.329 E2.13559
G1 X167.111 Y90.987 E2.22051
G1 X167.461 Y91.1 E2.23275
G1 X167.463 Y91.092 E2.23302
G1 X169.879 Y91.857 E2.31731
G1 X170.242 Y91.982 E2.33008
G1 X172.647 Y92.876 E2.41542
G1 X172.98 Y93.008 E2.42733
G1 X175.305 Y93.996 E2.51135
G1 X175.644 Y94.15 E2.52374
G1 X177.938 Y95.257 E2.60845
G1 X178.266 Y95.425 E2.62071
G1 X180.525 Y96.65 E2.70618
G1 X180.847 Y96.835 E2.71853
G1 X183.009 Y98.144 E2.8026
G1 X183.322 Y98.343 E2.81493
G1 X185.453 Y99.776 E2.90034
G1 X185.749 Y99.986 E2.91241
G1 X187.782 Y101.495 E2.99662
G1 X188.075 Y101.724 E3.00899
G1 X190.053 Y103.344 E3.09403
G1 X190.334 Y103.585 E3.10634
G1 X192.235 Y105.299 E3.19148
G1 X192.503 Y105.552 E3.20373
G1 X194.305 Y107.338 E3.28812
G1 X194.562 Y107.605 E3.30044
G1 X196.294 Y109.493 E3.38566
G1 X196.533 Y109.767 E3.39775
G1 X198.152 Y111.706 E3.48177
G1 X198.389 Y112.004 E3.49443
G1 X199.893 Y113.995 E3.57743
G1 X200.336 Y114.648 E3.60367
G1 X200.711 Y115.343 E3.62994
G1 X201.014 Y116.072 E3.65619
G1 X201.242 Y116.828 E3.68246
G1 X201.392 Y117.604 E3.70874
G1 X201.468 Y118.578 E3.74124
G1 X201.47 Y118.71 E3.74563
G1 X201.442 Y119.499 E3.77189
G1 X201.334 Y120.281 E3.79814
G1 X201.238 Y120.678 E3.81173
G1 X201.557 Y120.773 E3.8228
G1 X202.295 Y121.054 E3.84906
G1 X203.001 Y121.409 E3.87535
G1 X203.667 Y121.832 E3.90159
G1 X204.287 Y122.321 E3.92785
G1 X204.855 Y122.87 E3.95413
G1 X205.364 Y123.474 E3.9804
G1 X205.809 Y124.126 E4.00665
G1 X206.342 Y125.165 E4.04549
G1 X207.305 Y127.45 E4.12797
G1 X207.439 Y127.79 E4.14012
G1 X208.317 Y130.181 E4.22484
G1 X208.435 Y130.529 E4.23706
G1 X209.196 Y132.948 E4.3214
G1 X209.3 Y133.306 E4.3338
G1 X209.952 Y135.786 E4.41909
G1 X210.036 Y136.141 E4.43122
G1 X210.57 Y138.643 E4.51631
G1 X210.64 Y139.015 E4.5289
G1 X211.049 Y141.522 E4.61339
G1 X211.098 Y141.873 E4.62518
G1 X211.391 Y144.382 E4.70919
G1 X211.426 Y144.761 E4.72185
G1 X211.6 Y147.334 E4.80763
G1 X211.616 Y147.693 E4.81958
G1 X211.67 Y150.211 E4.90335
G1 X211.669 Y150.587 E4.91585
G1 X211.6 Y153.166 E5.00166
G1 X211.581 Y153.538 E5.01405
G1 X211.392 Y156.07 E5.0985
G1 X211.357 Y156.431 E5.11056
G1 X211.048 Y158.97 E5.19563
G1 X210.994 Y159.337 E5.20797
G1 X210.566 Y161.851 E5.29279
G1 X210.495 Y162.216 E5.30516
G1 X209.95 Y164.697 E5.38964
G1 X209.862 Y165.057 E5.40197
G1 X209.19 Y167.545 E5.48769
G1 X209.087 Y167.895 E5.49982
G1 X208.317 Y170.294 E5.58362
G1 X208.196 Y170.642 E5.59588
G1 X207.304 Y173.027 E5.68057
G1 X207.166 Y173.371 E5.6929
G1 X206.156 Y175.725 E5.77809
G1 X206.002 Y176.062 E5.79042
G1 X204.891 Y178.345 E5.87486
G1 X204.723 Y178.67 E5.88703
G1 X203.497 Y180.915 E5.97211
G1 X203.312 Y181.236 E5.98443
G1 X202.002 Y183.386 E6.06817
G1 X201.805 Y183.692 E6.08027
G1 X200.362 Y185.829 E6.16604
G1 X200.14 Y186.142 E6.1788
G1 X198.597 Y188.201 E6.26438
G1 X198.379 Y188.478 E6.2761
G1 X196.779 Y190.423 E6.35987
G1 X196.531 Y190.71 E6.37249
G1 X194.81 Y192.606 E6.45765
G1 X194.552 Y192.864 E6.46979
G1 X194.557 Y192.869 E6.47002
G1 X192.775 Y194.661 E6.55408
G1 X192.498 Y194.926 E6.56683
G1 X190.604 Y196.652 E6.65206
G1 X190.322 Y196.884 E6.6642
G1 X190.327 Y196.891 E6.66449
G1 X188.374 Y198.512 E6.7489
G1 X188.082 Y198.742 E6.76127
G1 X186.045 Y200.275 E6.84606
G1 X185.741 Y200.493 E6.8585
G1 X183.622 Y201.934 E6.94373
G1 X183.317 Y202.131 E6.95581
G1 X181.157 Y203.457 E7.04011
G1 X180.834 Y203.645 E7.05254
G1 X178.608 Y204.869 E7.13703
G1 X178.279 Y205.04 E7.14936
G1 X175.964 Y206.173 E7.23509
G1 X175.631 Y206.326 E7.24728
G1 X173.309 Y207.33 E7.33142
G1 X172.967 Y207.469 E7.3437
G1 X170.561 Y208.377 E7.42923
G1 X170.211 Y208.499 E7.44156
G1 X167.816 Y209.275 E7.52529
G1 X167.462 Y209.381 E7.53758
G1 X164.973 Y210.059 E7.62338
G1 X164.621 Y210.146 E7.63544
G1 X162.159 Y210.695 E7.71934
G1 X161.796 Y210.767 E7.73165
G1 X159.292 Y211.202 E7.81618
G1 X158.922 Y211.257 E7.82862
G1 X156.451 Y211.565 E7.91144
G1 X155.663 Y211.623 E7.93772
G1 X154.874 Y211.601 E7.96397
G1 X154.091 Y211.499 E7.99024
G1 X153.322 Y211.319 E8.01651
G1 X152.575 Y211.062 E8.04278
G1 X151.859 Y210.73 E8.06903
G1 X151.179 Y210.328 E8.0953
G1 X150.543 Y209.859 E8.12159
G1 X150.227 Y209.585 E8.1355
G1 X150.001 Y209.373 E8.1458
G1 X149.816 Y209.547 E8.15425
G1 X149.21 Y210.054 E8.18053
G1 X148.556 Y210.496 E8.20678
G1 X147.861 Y210.871 E8.23305
G1 X147.131 Y211.173 E8.25933
G1 X146.375 Y211.4 E8.28558
G1 X145.6 Y211.549 E8.31183
G1 X144.813 Y211.619 E8.33811
G1 X144.023 Y211.609 E8.36439
G1 X143.548 Y211.565 E8.38025
G1 X141.076 Y211.256 E8.46311
G1 X140.712 Y211.202 E8.47535
G1 X138.205 Y210.768 E8.55997
G1 X137.834 Y210.694 E8.57256
G1 X135.352 Y210.139 E8.65715
G1 X135 Y210.052 E8.66921
G1 X132.531 Y209.378 E8.75433
G1 X132.181 Y209.273 E8.76648
G1 X129.764 Y208.49 E8.85099
G1 X129.407 Y208.365 E8.86357
G1 X127.016 Y207.46 E8.9486
G1 X126.682 Y207.324 E8.96059
G1 X124.346 Y206.314 E9.04524
G1 X124.01 Y206.16 E9.05753
G1 X121.717 Y205.037 E9.14245
G1 X121.387 Y204.865 E9.15483
G1 X119.156 Y203.637 E9.23953
G1 X118.836 Y203.451 E9.25184
G1 X116.668 Y202.12 E9.33646
G1 X116.361 Y201.922 E9.34861
G1 X114.252 Y200.487 E9.43345
G1 X113.949 Y200.27 E9.44584
G1 X111.915 Y198.739 E9.53052
G1 X111.626 Y198.511 E9.54276
G1 X109.656 Y196.877 E9.62789
G1 X109.38 Y196.637 E9.64006
G1 X107.497 Y194.92 E9.72481
G1 X107.225 Y194.659 E9.73735
G1 X105.431 Y192.857 E9.82192
G1 X105.439 Y192.849 E9.8223
G1 X105.172 Y192.587 E9.83474
G1 X103.463 Y190.701 E9.91939
G1 X103.222 Y190.421 E9.93168
G1 X101.608 Y188.461 E10.01613
G1 X101.381 Y188.172 E10.02835
G1 X99.849 Y186.122 E10.11347
G1 X99.635 Y185.822 E10.12573
G1 X98.207 Y183.71 E10.21052
G1 X98.009 Y183.4 E10.22276
G1 X96.687 Y181.231 E10.30724
G1 X96.501 Y180.91 E10.31958
G1 X95.266 Y178.648 E10.4053
G1 X95.096 Y178.319 E10.41761
G1 X93.989 Y176.041 E10.50185
G1 X93.838 Y175.709 E10.51398
G1 X92.833 Y173.368 E10.59872
G1 X92.695 Y173.026 E10.61098
G1 X91.804 Y170.646 E10.69551
G1 X91.689 Y170.267 E10.70868
G1 X91.677 Y170.271 E10.7091
G1 X90.906 Y167.876 E10.79279
G1 X90.799 Y167.515 E10.80531
G1 X90.134 Y165.046 E10.89036
G1 X90.055 Y164.677 E10.90291
G1 X90.048 Y164.678 E10.90314
G1 X89.505 Y162.22 E10.98687
G1 X89.431 Y161.84 E10.99974
G1 X89.003 Y159.313 E11.08499
G1 X88.95 Y158.954 E11.09706
G1 X88.643 Y156.437 E11.18139
G1 X88.608 Y156.073 E11.19356
G1 X88.418 Y153.526 E11.27851
G1 X88.411 Y153.134 E11.29155
G1 X88.4 Y153.134 E11.29191
G1 X88.331 Y150.619 E11.37559
G1 X88.33 Y150.238 E11.38826
G1 X88.385 Y147.669 E11.47373
G1 X88.401 Y147.308 E11.48575
G1 X88.572 Y144.787 E11.56979
G1 X88.606 Y144.417 E11.58215
G1 X88.903 Y141.854 E11.66796
G1 X88.955 Y141.483 E11.68042
G1 X89.368 Y138.978 E11.76486
G1 X89.435 Y138.621 E11.77695
G1 X89.969 Y136.116 E11.86213
G1 X90.054 Y135.758 E11.87437
G1 X90.694 Y133.324 E11.95808
G1 X90.798 Y132.967 E11.97045
G1 X91.569 Y130.517 E12.05587
G1 X91.688 Y130.168 E12.06814
G1 X92.571 Y127.765 E12.15329
G1 X92.706 Y127.423 E12.16552
G1 X93.663 Y125.155 E12.24739
G1 X94.006 Y124.444 E12.27365
G1 X94.42 Y123.771 E12.29993
G1 X94.899 Y123.143 E12.3262
G1 X95.44 Y122.568 E12.35246
G1 X96.035 Y122.049 E12.37872
G1 X96.871 Y121.478 E12.41239
G1 X96.984 Y121.411 E12.41676
G1 X97.683 Y121.043 E12.44303
G1 X98.415 Y120.748 E12.46928
G1 X98.779 Y120.643 E12.48188
G1 X98.738 Y120.468 E12.48786
G1 X98.597 Y119.691 E12.51412
G1 X98.536 Y118.903 E12.54041
G1 X98.554 Y118.114 E12.56666
G1 X98.653 Y117.33 E12.59294
G1 X98.83 Y116.561 E12.61919
G1 X99.083 Y115.813 E12.64545
G1 X99.411 Y115.095 E12.67171
G1 X99.811 Y114.413 E12.698
G1 X100.112 Y113.985 E12.71541
G1 X101.6 Y112.018 E12.79744
G1 X101.833 Y111.726 E12.80987
G1 X103.483 Y109.749 E12.89551
G1 X103.727 Y109.47 E12.90784
G1 X105.446 Y107.599 E12.99235
G1 X105.698 Y107.338 E13.00442
G0 F6000 X105.979 Y107.622
G1 F1200 X107.787 Y105.829 E13.08911
G1 X108.044 Y105.586 E13.10087
G1 X109.938 Y103.879 E13.18567
G1 X110.206 Y103.649 E13.19742
G1 X112.186 Y102.029 E13.28251
G1 X112.46 Y101.815 E13.29407
G1 X114.499 Y100.301 E13.37854
G1 X114.784 Y100.1 E13.39014
G1 X116.909 Y98.672 E13.47529
G1 X117.205 Y98.483 E13.48697
G1 X119.385 Y97.164 E13.57172
G1 X119.689 Y96.99 E13.58337
G1 X121.928 Y95.776 E13.66808
G1 X122.241 Y95.615 E13.67979
G1 X124.541 Y94.506 E13.76472
G1 X124.861 Y94.361 E13.7764
G1 X127.193 Y93.37 E13.86068
G1 X127.514 Y93.243 E13.87216
G1 X129.917 Y92.352 E13.9574
G1 X130.251 Y92.237 E13.96915
G1 X132.673 Y91.468 E14.05367
G1 X132.678 Y91.484 E14.05422
G1 X133.018 Y91.365 E14.06621
G1 X135.478 Y90.711 E14.15087
G1 X135.818 Y90.63 E14.16249
G1 X138.301 Y90.094 E14.24698
G1 X138.642 Y90.028 E14.25853
G1 X141.155 Y89.608 E14.34327
G1 X141.502 Y89.559 E14.35493
G1 X144.043 Y89.257 E14.44004
G1 X144.392 Y89.224 E14.4517
G1 X146.926 Y89.044 E14.53619
G1 X147.276 Y89.027 E14.54785
G1 X149.828 Y88.967 E14.63275
G1 X150.176 Y88.967 E14.64432
G1 X152.72 Y89.027 E14.72896
G1 X153.068 Y89.043 E14.74055
G1 X155.613 Y89.223 E14.82541
G1 X155.964 Y89.257 E14.83714
G1 X158.499 Y89.558 E14.92204
G1 X158.852 Y89.608 E14.9339
G1 X161.376 Y90.032 E15.01903
G1 X161.711 Y90.096 E15.03037
G1 X164.195 Y90.632 E15.11489
G1 X164.541 Y90.716 E15.12673
G1 X167.008 Y91.374 E15.21165
G1 X167.339 Y91.481 E15.22322
G1 X167.342 Y91.473 E15.22351
G1 X169.758 Y92.238 E15.3078
G1 X170.102 Y92.357 E15.3199
G1 X172.507 Y93.251 E15.40524
G1 X172.823 Y93.376 E15.41654
G1 X175.148 Y94.364 E15.50057
G1 X175.47 Y94.51 E15.51232
G1 X177.764 Y95.617 E15.59704
G1 X178.076 Y95.777 E15.6087
G1 X180.335 Y97.002 E15.69418
G1 X180.64 Y97.177 E15.70587
G1 X182.802 Y98.486 E15.78993
G1 X183.098 Y98.675 E15.80161
G1 X185.229 Y100.108 E15.88703
G1 X185.51 Y100.307 E15.89848
G1 X187.543 Y101.816 E15.98269
G1 X187.822 Y102.033 E15.99444
G1 X189.8 Y103.653 E16.07948
G1 X190.066 Y103.882 E16.09115
G1 X191.967 Y105.596 E16.17629
G1 X192.221 Y105.836 E16.18791
G1 X194.023 Y107.622 E16.2723
G1 X194.267 Y107.876 E16.28401
G1 X195.999 Y109.764 E16.36923
G1 X196.226 Y110.023 E16.38068
G1 X197.845 Y111.962 E16.4647
G1 X198.07 Y112.245 E16.47672
G1 X199.574 Y114.236 E16.55971
G1 X200.005 Y114.873 E16.58529
G1 X200.367 Y115.551 E16.61086
G1 X200.658 Y116.263 E16.63644
G1 X200.872 Y117.002 E16.66203
G1 X201.009 Y117.759 E16.68762
G1 X201.068 Y118.584 E16.71513
G1 X201.07 Y118.716 E16.71952
G1 X201.042 Y119.485 E16.74511
G1 X200.934 Y120.246 E16.77067
G1 X200.753 Y120.968 E16.79543
G1 X201.224 Y121.086 E16.81158
G1 X201.434 Y121.154 E16.81892
G1 X202.152 Y121.429 E16.8445
G1 X202.838 Y121.776 E16.87007
G1 X203.484 Y122.193 E16.89564
G1 X204.084 Y122.675 E16.92124
G1 X204.63 Y123.217 E16.94682
G1 X205.117 Y123.812 E16.9724
G1 X205.54 Y124.455 E16.998
G1 X205.973 Y125.32 E17.03017
G1 X206.936 Y127.605 E17.11264
G1 X207.063 Y127.928 E17.12419
G1 X207.941 Y130.319 E17.2089
G1 X208.054 Y130.649 E17.22051
G1 X208.815 Y133.068 E17.30485
G1 X208.913 Y133.407 E17.31659
G1 X209.565 Y135.887 E17.40187
G1 X209.645 Y136.224 E17.41339
G1 X210.179 Y138.726 E17.49849
G1 X210.245 Y139.079 E17.51043
G1 X210.654 Y141.586 E17.59492
G1 X210.701 Y141.92 E17.60613
G1 X210.994 Y144.429 E17.69015
G1 X211.027 Y144.788 E17.70214
G1 X211.201 Y147.361 E17.78792
G1 X211.216 Y147.701 E17.79923
G1 X211.27 Y150.219 E17.883
G1 X211.269 Y150.576 E17.89488
G1 X211.2 Y153.155 E17.98069
G1 X211.182 Y153.508 E17.99244
G1 X210.993 Y156.04 E18.07689
G1 X210.96 Y156.383 E18.08835
G1 X210.651 Y158.922 E18.17342
G1 X210.6 Y159.27 E18.18512
G1 X210.172 Y161.784 E18.26994
G1 X210.105 Y162.13 E18.28166
G1 X209.56 Y164.611 E18.36615
G1 X209.476 Y164.953 E18.37786
G1 X208.804 Y167.441 E18.46358
G1 X208.706 Y167.773 E18.47509
G1 X207.936 Y170.172 E18.55889
G1 X207.821 Y170.502 E18.57051
G1 X206.929 Y172.887 E18.65521
G1 X206.798 Y173.213 E18.66689
G1 X205.788 Y175.567 E18.75209
G1 X205.642 Y175.887 E18.76379
G1 X204.531 Y178.17 E18.84823
G1 X204.372 Y178.479 E18.85979
G1 X203.146 Y180.724 E18.94487
G1 X202.97 Y181.027 E18.95652
G1 X201.66 Y183.177 E19.04026
G1 X201.474 Y183.468 E19.05175
G1 X200.031 Y185.605 E19.13751
G1 X199.82 Y185.902 E19.14963
G1 X198.277 Y187.961 E19.23521
G1 X198.07 Y188.224 E19.24634
G1 X196.47 Y190.169 E19.33011
G1 X196.234 Y190.442 E19.34211
G1 X194.513 Y192.338 E19.42727
G1 X194.267 Y192.581 E19.43877
G1 X194.273 Y192.587 E19.43906
G1 X192.491 Y194.379 E19.52311
G1 X192.228 Y194.631 E19.53523
G1 X190.334 Y196.357 E19.62046
G1 X190.066 Y196.577 E19.63199
G1 X190.071 Y196.583 E19.63225
G1 X188.118 Y198.204 E19.71666
G1 X187.842 Y198.423 E19.72838
G1 X185.805 Y199.956 E19.81318
G1 X185.516 Y200.162 E19.82498
G1 X183.397 Y201.603 E19.91021
G1 X183.107 Y201.79 E19.92169
G1 X180.947 Y203.116 E20.00599
G1 X180.642 Y203.294 E20.01773
G1 X178.416 Y204.518 E20.10222
G1 X178.103 Y204.681 E20.11396
G1 X175.788 Y205.814 E20.19969
G1 X175.472 Y205.959 E20.21125
G1 X173.15 Y206.963 E20.29539
G1 X172.826 Y207.094 E20.30701
G1 X170.42 Y208.002 E20.39255
G1 X170.088 Y208.119 E20.40426
G1 X167.693 Y208.895 E20.48799
G1 X167.357 Y208.995 E20.49965
G1 X164.868 Y209.673 E20.58545
G1 X164.534 Y209.756 E20.5969
G1 X162.072 Y210.305 E20.6808
G1 X161.728 Y210.373 E20.69246
G1 X159.224 Y210.808 E20.77699
G1 X158.872 Y210.86 E20.78882
G1 X156.401 Y211.168 E20.87165
G1 X155.634 Y211.224 E20.89722
G1 X154.865 Y211.199 E20.92281
G1 X154.103 Y211.095 E20.94839
G1 X153.356 Y210.912 E20.97397
G1 X152.632 Y210.653 E20.99955
G1 X151.939 Y210.319 E21.02513
G1 X151.284 Y209.916 E21.05071
G1 X150.496 Y209.29 E21.08419
G1 X150.335 Y209.143 E21.09144
G1 X149.996 Y208.799 E21.1075
G1 X149.707 Y209.103 E21.12145
G1 X149.544 Y209.254 E21.12884
G1 X148.953 Y209.746 E21.15442
G1 X148.315 Y210.175 E21.17999
G1 X147.635 Y210.535 E21.20558
G1 X146.922 Y210.823 E21.23116
G1 X146.182 Y211.035 E21.25676
G1 X145.425 Y211.169 E21.28233
G1 X144.658 Y211.224 E21.3079
G1 X143.597 Y211.168 E21.34324
G1 X141.125 Y210.859 E21.4261
