;FLAVOR:Marlin
;TIME:3000
;Filament used: 2.01629m
;Layer height: 0.16
;MINX:110.206
;MINY:120.2
;MINZ:0.2
;MAXX:189.794
;MAXY:165.556
;MAXZ:3.8
;Generated with Cura_SteamEngine 4.9.1
M140 S50
M105
M190 S50
M104 S200
M105
M109 S200
M82 ;absolute extrusion mode
M201 X500.00 Y500.00 Z100.00 E5000.00 ;Setup machine max acceleration
M203 X500.00 Y500.00 Z10.00 E50.00 ;Setup machine max feedrate
M204 P500.00 R1000.00 T500.00 ;Setup Print/Retract/Travel acceleration
M205 X8.00 Y8.00 Z0.40 E5.00 ;Setup Jerk
M220 S100 ;Reset Feedrate
M221 S100 ;Reset Flowrate

G28 ;Home
G29 ;Auto bed Level

G92 E0 ;Reset Extruder
G1 Z2.0 F3000 ;Move Z Axis up
G1 X10.1 Y20 Z0.28 F5000.0 ;Move to start position
G1 X10.1 Y200.0 Z0.28 F1500.0 E15 ;Draw the first line
G1 X10.4 Y200.0 Z0.28 F5000.0 ;Move to side a little
G1 X10.4 Y20 Z0.28 F1500.0 E30 ;Draw the second line
G92 E0 ;Reset Extruder
G1 Z2.0 F3000 ;Move Z Axis up

G92 E0
G92 E0
G1 F2700 E-5
;LAYER_COUNT:21
;LAYER:0
M107
G0 F6000 X114.996 Y124.103 Z0.2
;TYPE:SKIRT
G1 F2700 E0
G1 F1200 X115.437 Y123.709 E0.01967
G1 X115.958 Y123.288 E0.04195
G1 X116.447 Y122.926 E0.06218
G1 X117.004 Y122.55 E0.08454
G1 X117.497 Y122.247 E0.10378
G1 X118.072 Y121.926 E0.12569
G1 X118.61 Y121.655 E0.14572
G1 X119.207 Y121.385 E0.16751
G1 X119.766 Y121.16 E0.18756
G1 X120.406 Y120.934 E0.21013
G1 X120.971 Y120.762 E0.22977
G1 X121.599 Y120.599 E0.25135
G1 X122.174 Y120.475 E0.27092
G1 X122.834 Y120.362 E0.29319
G1 X123.416 Y120.288 E0.3127
G1 X124.063 Y120.233 E0.3343
G1 X124.665 Y120.207 E0.35434
G1 X125.002 Y120.2 E0.36555
G1 X174.997 Y120.2 E2.02839
G1 X175.341 Y120.208 E2.03984
G1 X175.953 Y120.235 E2.06021
G1 X176.609 Y120.291 E2.08211
G1 X177.189 Y120.366 E2.10156
G1 X177.84 Y120.479 E2.12354
G1 X178.417 Y120.604 E2.14317
G1 X179.045 Y120.767 E2.16475
G1 X179.608 Y120.939 E2.18433
G1 X180.246 Y121.165 E2.20684
G1 X180.804 Y121.39 E2.22686
G1 X181.401 Y121.66 E2.24865
G1 X181.938 Y121.931 E2.26865
G1 X182.506 Y122.248 E2.29029
G1 X183.001 Y122.552 E2.30961
G1 X183.574 Y122.941 E2.33264
G1 X184.062 Y123.304 E2.35287
G1 X184.571 Y123.716 E2.37465
G1 X185.008 Y124.102 E2.39405
G1 X185.001 Y124.109 E2.39438
G1 X185.509 Y124.582 E2.41746
G1 X185.906 Y125 E2.43664
G1 X186.313 Y125.465 E2.45719
G1 X186.695 Y125.937 E2.47739
G1 X187.097 Y126.48 E2.49986
G1 X187.423 Y126.963 E2.51924
G1 X187.761 Y127.511 E2.54065
G1 X188.06 Y128.044 E2.56098
G1 X188.374 Y128.667 E2.58418
G1 X188.61 Y129.193 E2.60336
G1 X188.848 Y129.789 E2.6247
G1 X189.05 Y130.361 E2.64488
G1 X189.242 Y130.989 E2.66672
G1 X189.391 Y131.56 E2.68635
G1 X189.534 Y132.221 E2.70884
G1 X189.634 Y132.809 E2.72868
G1 X189.714 Y133.439 E2.7498
G1 X189.764 Y134.012 E2.76893
G1 X189.794 Y134.69 E2.79151
G1 X189.794 Y135.308 E2.81206
G1 X189.764 Y135.987 E2.83467
G1 X189.713 Y136.571 E2.85416
G1 X189.631 Y137.207 E2.87549
G1 X189.532 Y137.786 E2.89503
G1 X189.389 Y138.448 E2.91756
G1 X189.237 Y139.028 E2.9375
G1 X189.043 Y139.661 E2.95952
G1 X188.841 Y140.23 E2.9796
G1 X188.604 Y140.819 E3.00072
G1 X188.367 Y141.346 E3.01994
G1 X188.052 Y141.97 E3.04318
G1 X187.754 Y142.5 E3.06341
G1 X187.521 Y142.877 E3.07815
G1 X187.767 Y143.278 E3.0938
G1 X188.066 Y143.813 E3.11418
G1 X188.367 Y144.41 E3.13642
G1 X188.603 Y144.933 E3.1555
G1 X188.849 Y145.548 E3.17753
G1 X189.051 Y146.121 E3.19774
G1 X189.242 Y146.745 E3.21944
G1 X189.391 Y147.316 E3.23907
G1 X189.534 Y147.977 E3.26157
G1 X189.634 Y148.565 E3.2814
G1 X189.714 Y149.194 E3.30249
G1 X189.764 Y149.766 E3.32159
G1 X189.794 Y150.445 E3.3442
G1 X189.794 Y151.064 E3.36478
G1 X189.764 Y151.744 E3.38742
G1 X189.713 Y152.327 E3.40689
G1 X189.632 Y152.957 E3.42801
G1 X189.533 Y153.538 E3.44762
G1 X189.388 Y154.212 E3.47055
G1 X189.236 Y154.79 E3.49042
G1 X189.044 Y155.411 E3.51204
G1 X188.842 Y155.981 E3.53216
G1 X188.604 Y156.575 E3.55344
G1 X188.367 Y157.102 E3.57266
G1 X188.052 Y157.726 E3.59591
G1 X187.754 Y158.256 E3.61613
G1 X187.412 Y158.809 E3.63776
G1 X187.084 Y159.293 E3.6572
G1 X186.71 Y159.799 E3.67813
G1 X186.336 Y160.265 E3.69801
G1 X185.899 Y160.756 E3.71987
G1 X185.51 Y161.172 E3.73881
G1 X184.997 Y161.66 E3.76236
G1 X184.555 Y162.053 E3.78203
G1 X184.039 Y162.47 E3.8041
G1 X183.551 Y162.831 E3.82429
G1 X182.998 Y163.204 E3.84647
G1 X182.494 Y163.514 E3.86615
G1 X181.918 Y163.836 E3.8881
G1 X181.398 Y164.098 E3.90747
G1 X180.787 Y164.373 E3.92975
G1 X180.225 Y164.598 E3.94989
G1 X179.612 Y164.815 E3.97152
G1 X179.041 Y164.99 E3.99138
G1 X178.399 Y165.157 E4.01344
G1 X177.833 Y165.279 E4.0327
G1 X177.187 Y165.39 E4.0545
G1 X176.598 Y165.466 E4.07425
G1 X175.937 Y165.523 E4.09632
G1 X175.335 Y165.549 E4.11636
G1 X174.998 Y165.556 E4.12757
G1 X125.003 Y165.556 E5.79041
G1 X124.659 Y165.548 E5.80186
G1 X124.047 Y165.521 E5.82223
G1 X123.391 Y165.465 E5.84413
G1 X122.811 Y165.39 E5.86358
G1 X122.164 Y165.278 E5.88542
G1 X121.59 Y165.154 E5.90495
G1 X120.954 Y164.989 E5.92681
G1 X120.392 Y164.817 E5.94635
G1 X119.765 Y164.595 E5.96848
G1 X119.193 Y164.365 E5.98898
G1 X118.582 Y164.088 E6.0113
G1 X118.066 Y163.827 E6.03053
G1 X117.497 Y163.509 E6.05221
G1 X116.992 Y163.198 E6.07193
G1 X116.445 Y162.828 E6.0939
G1 X115.954 Y162.465 E6.11421
G1 X115.429 Y162.041 E6.13665
G1 X114.986 Y161.65 E6.15631
G1 X114.499 Y161.181 E6.17879
G1 X114.101 Y160.763 E6.19799
G1 X113.682 Y160.285 E6.21913
G1 X113.3 Y159.812 E6.23935
G1 X112.903 Y159.274 E6.26159
G1 X112.575 Y158.788 E6.28109
G1 X112.238 Y158.242 E6.30243
G1 X111.94 Y157.711 E6.32269
G1 X111.625 Y157.086 E6.34596
G1 X111.39 Y156.562 E6.36507
G1 X111.147 Y155.952 E6.3869
G1 X110.947 Y155.382 E6.407
G1 X110.759 Y154.768 E6.42835
G1 X110.607 Y154.185 E6.44839
G1 X110.467 Y153.532 E6.47061
G1 X110.368 Y152.953 E6.49014
G1 X110.286 Y152.317 E6.51147
G1 X110.236 Y151.745 E6.53057
G1 X110.206 Y151.066 E6.55317
G1 X110.206 Y150.447 E6.57376
G1 X110.236 Y149.767 E6.5964
G1 X110.287 Y149.184 E6.61587
G1 X110.368 Y148.552 E6.63706
G1 X110.467 Y147.972 E6.65663
G1 X110.612 Y147.303 E6.6794
G1 X110.764 Y146.724 E6.69931
G1 X110.956 Y146.1 E6.72102
G1 X111.158 Y145.53 E6.74113
G1 X111.407 Y144.913 E6.76326
G1 X111.642 Y144.395 E6.78218
G1 X111.657 Y144.402 E6.78273
G1 X111.948 Y143.784 E6.80545
G1 X112.247 Y143.252 E6.82575
G1 X112.479 Y142.877 E6.84042
G1 X112.242 Y142.493 E6.85542
G1 X111.943 Y141.961 E6.87572
G1 X111.629 Y141.338 E6.89893
G1 X111.392 Y140.811 E6.91815
G1 X111.15 Y140.206 E6.93982
G1 X110.949 Y139.636 E6.95992
G1 X110.758 Y139.011 E6.98166
G1 X110.609 Y138.44 E7.00128
G1 X110.466 Y137.779 E7.02378
G1 X110.366 Y137.191 E7.04362
G1 X110.286 Y136.561 E7.06474
G1 X110.236 Y135.988 E7.08387
G1 X110.206 Y135.31 E7.10644
G1 X110.206 Y134.692 E7.127
G1 X110.236 Y134.013 E7.1496
G1 X110.287 Y133.429 E7.1691
G1 X110.368 Y132.796 E7.19032
G1 X110.467 Y132.216 E7.20989
G1 X110.612 Y131.547 E7.23266
G1 X110.764 Y130.968 E7.25257
G1 X110.957 Y130.339 E7.27446
G1 X111.159 Y129.77 E7.29454
G1 X111.396 Y129.181 E7.31565
G1 X111.633 Y128.654 E7.33487
G1 X111.947 Y128.033 E7.35802
G1 X112.247 Y127.499 E7.37839
G1 X112.59 Y126.943 E7.40012
G1 X112.916 Y126.462 E7.41944
G1 X113.295 Y125.949 E7.44066
G1 X113.669 Y125.484 E7.46051
G1 X114.101 Y125 E7.48208
G1 X114.199 Y124.891 E7.48696
G1 X114.49 Y124.584 E7.50103
G1 X114.996 Y124.103 E7.52425
G0 F6000 X115.261 Y124.403
G1 F1200 X115.702 Y124.009 E7.54392
G1 X116.196 Y123.609 E7.56506
G1 X116.685 Y123.247 E7.58529
G1 X117.213 Y122.891 E7.60647
G1 X117.706 Y122.588 E7.62572
G1 X118.252 Y122.283 E7.64652
G1 X118.79 Y122.012 E7.66656
G1 X119.356 Y121.756 E7.68722
G1 X119.915 Y121.531 E7.70726
G1 X120.523 Y121.317 E7.7287
G1 X121.088 Y121.145 E7.74834
G1 X121.683 Y120.99 E7.76879
G1 X122.258 Y120.866 E7.78836
G1 X122.885 Y120.759 E7.80951
G1 X123.467 Y120.685 E7.82903
G1 X124.081 Y120.633 E7.84952
G1 X124.683 Y120.607 E7.86956
G1 X125.002 Y120.6 E7.88018
G1 X174.997 Y120.6 E9.54302
G1 X175.323 Y120.607 E9.55386
G1 X175.935 Y120.634 E9.57424
G1 X176.558 Y120.688 E9.59503
G1 X177.138 Y120.763 E9.61449
G1 X177.756 Y120.87 E9.63535
G1 X178.333 Y120.995 E9.65498
G1 X178.928 Y121.15 E9.67543
G1 X179.491 Y121.322 E9.69501
G1 X180.096 Y121.536 E9.71636
G1 X180.654 Y121.761 E9.73637
G1 X181.221 Y122.018 E9.75707
G1 X181.758 Y122.289 E9.77708
G1 X182.297 Y122.589 E9.7976
G1 X182.792 Y122.893 E9.81692
G1 X183.336 Y123.262 E9.83878
G1 X183.824 Y123.625 E9.85901
G1 X184.306 Y124.016 E9.87965
G1 X184.743 Y124.402 E9.89905
G1 X184.738 Y124.408 E9.89931
G1 X185.219 Y124.858 E9.92121
G1 X185.616 Y125.276 E9.94039
G1 X186.002 Y125.717 E9.95988
G1 X186.384 Y126.189 E9.98008
G1 X186.766 Y126.704 E10.0014
G1 X187.092 Y127.187 E10.02078
G1 X187.412 Y127.707 E10.04109
G1 X187.711 Y128.24 E10.06142
G1 X188.009 Y128.831 E10.08343
G1 X188.245 Y129.357 E10.10261
G1 X188.471 Y129.922 E10.12285
G1 X188.673 Y130.494 E10.14302
G1 X188.855 Y131.09 E10.16375
G1 X189.004 Y131.661 E10.18338
G1 X189.139 Y132.288 E10.20471
G1 X189.239 Y132.876 E10.22455
G1 X189.316 Y133.474 E10.2446
G1 X189.366 Y134.047 E10.26373
G1 X189.394 Y134.69 E10.28514
G1 X189.394 Y135.308 E10.30569
G1 X189.366 Y135.952 E10.32713
G1 X189.315 Y136.536 E10.34663
G1 X189.237 Y137.139 E10.36685
G1 X189.138 Y137.718 E10.38639
G1 X189.002 Y138.347 E10.40779
G1 X188.85 Y138.927 E10.42774
G1 X188.666 Y139.527 E10.44861
G1 X188.464 Y140.096 E10.46869
G1 X188.239 Y140.655 E10.48873
G1 X188.002 Y141.182 E10.50795
G1 X187.703 Y141.774 E10.53001
G1 X187.405 Y142.304 E10.55024
G1 X187.081 Y142.828 E10.57073
G1 X187.048 Y142.877 E10.57269
G1 X187.092 Y142.943 E10.57533
G1 X187.418 Y143.473 E10.59603
G1 X187.717 Y144.008 E10.61641
G1 X188.002 Y144.574 E10.63749
G1 X188.238 Y145.097 E10.65657
G1 X188.472 Y145.681 E10.6775
G1 X188.674 Y146.254 E10.6977
G1 X188.855 Y146.846 E10.71829
G1 X189.004 Y147.417 E10.73792
G1 X189.139 Y148.044 E10.75925
G1 X189.239 Y148.632 E10.77909
G1 X189.316 Y149.229 E10.79911
G1 X189.366 Y149.801 E10.81821
G1 X189.394 Y150.445 E10.83965
G1 X189.394 Y151.064 E10.86024
G1 X189.366 Y151.709 E10.88171
G1 X189.315 Y152.292 E10.90117
G1 X189.238 Y152.89 E10.92123
G1 X189.139 Y153.471 E10.94083
G1 X189.001 Y154.11 E10.96257
G1 X188.849 Y154.688 E10.98245
G1 X188.667 Y155.278 E11.00299
G1 X188.465 Y155.848 E11.0231
G1 X188.239 Y156.411 E11.04328
G1 X188.002 Y156.938 E11.0625
G1 X187.703 Y157.53 E11.08456
G1 X187.405 Y158.06 E11.10478
G1 X187.081 Y158.584 E11.12527
G1 X186.753 Y159.068 E11.14472
G1 X186.398 Y159.549 E11.1646
G1 X186.024 Y160.015 E11.18447
G1 X185.609 Y160.48 E11.2052
G1 X185.508 Y160.592 E11.21022
G1 X185.22 Y160.896 E11.22415
G1 X184.732 Y161.359 E11.24652
G1 X184.291 Y161.753 E11.26619
G1 X183.801 Y162.148 E11.28712
G1 X183.313 Y162.509 E11.30731
G1 X182.789 Y162.863 E11.32835
G1 X182.285 Y163.173 E11.34803
G1 X181.738 Y163.479 E11.36887
G1 X181.218 Y163.741 E11.38824
G1 X180.638 Y164.002 E11.40939
G1 X180.076 Y164.227 E11.42953
G1 X179.494 Y164.432 E11.45005
G1 X178.923 Y164.607 E11.46992
G1 X178.314 Y164.766 E11.49085
G1 X177.748 Y164.888 E11.51011
G1 X177.136 Y164.993 E11.53076
G1 X176.547 Y165.069 E11.55051
G1 X175.919 Y165.123 E11.57148
G1 X175.317 Y165.149 E11.59152
G1 X174.998 Y165.156 E11.60213
G1 X125.003 Y165.156 E13.26497
G1 X124.677 Y165.149 E13.27582
G1 X124.065 Y165.122 E13.29619
G1 X123.442 Y165.068 E13.31699
G1 X122.862 Y164.993 E13.33644
G1 X122.248 Y164.887 E13.35717
G1 X121.674 Y164.763 E13.3767
G1 X121.071 Y164.606 E13.39742
G1 X120.509 Y164.434 E13.41697
G1 X119.914 Y164.224 E13.43796
G1 X119.342 Y163.994 E13.45846
G1 X118.763 Y163.731 E13.47961
G1 X118.247 Y163.47 E13.49885
G1 X117.707 Y163.168 E13.51942
G1 X117.202 Y162.857 E13.53915
G1 X116.683 Y162.506 E13.55999
G1 X116.192 Y162.143 E13.5803
G1 X115.694 Y161.741 E13.60158
G1 X115.251 Y161.35 E13.62124
G1 X114.789 Y160.905 E13.64257
G1 X114.391 Y160.487 E13.66177
G1 X113.993 Y160.033 E13.68185
G1 X113.611 Y159.56 E13.70207
G1 X113.234 Y159.051 E13.72314
G1 X112.906 Y158.565 E13.74264
G1 X112.587 Y158.047 E13.76287
G1 X112.289 Y157.516 E13.78313
G1 X111.99 Y156.922 E13.80524
G1 X111.755 Y156.398 E13.82435
G1 X111.524 Y155.82 E13.84505
G1 X111.324 Y155.25 E13.86514
G1 X111.146 Y154.667 E13.88541
G1 X110.994 Y154.084 E13.90545
G1 X110.861 Y153.464 E13.92654
G1 X110.762 Y152.885 E13.94608
G1 X110.684 Y152.282 E13.9663
G1 X110.634 Y151.71 E13.9854
G1 X110.606 Y151.066 E14.00684
G1 X110.606 Y150.447 E14.02743
G1 X110.634 Y149.802 E14.0489
G1 X110.685 Y149.219 E14.06837
G1 X110.762 Y148.619 E14.08849
G1 X110.861 Y148.039 E14.10806
G1 X110.999 Y147.405 E14.12964
G1 X111.151 Y146.826 E14.14955
G1 X111.333 Y146.233 E14.17018
G1 X111.535 Y145.663 E14.19029
G1 X111.771 Y145.078 E14.21127
G1 X112.006 Y144.56 E14.23019
G1 X112.02 Y144.566 E14.2307
G1 X112.297 Y143.98 E14.25226
G1 X112.596 Y143.448 E14.27255
G1 X112.925 Y142.916 E14.29336
G1 X112.952 Y142.876 E14.29496
G1 X112.904 Y142.805 E14.29781
G1 X112.591 Y142.297 E14.31766
G1 X112.292 Y141.765 E14.33796
G1 X111.994 Y141.174 E14.35997
G1 X111.757 Y140.647 E14.37919
G1 X111.527 Y140.073 E14.39976
G1 X111.326 Y139.503 E14.41986
G1 X111.145 Y138.91 E14.44048
G1 X110.996 Y138.339 E14.46011
G1 X110.861 Y137.712 E14.48144
G1 X110.761 Y137.124 E14.50128
G1 X110.684 Y136.526 E14.52133
G1 X110.634 Y135.953 E14.54046
G1 X110.606 Y135.31 E14.56187
G1 X110.606 Y134.692 E14.58242
G1 X110.634 Y134.048 E14.60386
G1 X110.685 Y133.464 E14.62336
G1 X110.762 Y132.863 E14.64351
G1 X110.861 Y132.283 E14.66308
G1 X110.999 Y131.649 E14.68466
G1 X111.151 Y131.07 E14.70457
G1 X111.334 Y130.473 E14.72534
G1 X111.536 Y129.904 E14.74543
G1 X111.761 Y129.345 E14.76547
G1 X111.998 Y128.818 E14.78469
G1 X112.295 Y128.229 E14.80663
G1 X112.595 Y127.695 E14.827
G1 X112.921 Y127.167 E14.84764
G1 X113.247 Y126.686 E14.86696
G1 X113.607 Y126.2 E14.88708
G1 X113.981 Y125.735 E14.90693
G1 X114.391 Y125.276 E14.9274
G1 X114.78 Y124.86 E14.94634
G1 X115.261 Y124.403 E14.96841
G0 F6000 X115.527 Y124.703
G1 F1200 X115.616 Y124.618 E14.9725
G1 X115.967 Y124.309 E14.98805
G1 X116.434 Y123.931 E15.00804
G1 X116.923 Y123.569 E15.02827
G1 X117.423 Y123.231 E15.04835
G1 X117.916 Y122.928 E15.06759
G1 X118.432 Y122.64 E15.08725
G1 X118.97 Y122.369 E15.10728
G1 X119.505 Y122.127 E15.12681
G1 X120.064 Y121.902 E15.14686
G1 X120.639 Y121.699 E15.16714
G1 X121.204 Y121.527 E15.18678
G1 X121.767 Y121.381 E15.20613
G1 X122.342 Y121.257 E15.22569
G1 X122.935 Y121.156 E15.2457
G1 X123.517 Y121.082 E15.26521
G1 X124.098 Y121.033 E15.2846
G1 X124.7 Y121.007 E15.30464
G1 X125.002 Y121 E15.31469
G1 X174.997 Y121 E16.97753
G1 X175.306 Y121.007 E16.98781
G1 X175.918 Y121.034 E17.00819
G1 X176.507 Y121.085 E17.02785
G1 X177.087 Y121.16 E17.0473
G1 X177.671 Y121.261 E17.06701
G1 X178.248 Y121.386 E17.08665
G1 X178.811 Y121.532 E17.106
G1 X179.374 Y121.704 E17.12558
G1 X179.947 Y121.907 E17.14579
G1 X180.505 Y122.132 E17.1658
G1 X181.041 Y122.375 E17.18538
G1 X181.578 Y122.646 E17.20538
G1 X182.087 Y122.93 E17.22477
G1 X182.582 Y123.234 E17.24409
G1 X183.097 Y123.582 E17.26476
G1 X183.585 Y123.945 E17.28499
G1 X184.041 Y124.316 E17.30455
G1 X184.478 Y124.702 E17.32394
G1 X184.474 Y124.707 E17.32415
G1 X184.929 Y125.133 E17.34488
G1 X185.326 Y125.551 E17.36406
G1 X185.691 Y125.968 E17.38249
G1 X186.073 Y126.44 E17.40268
G1 X186.434 Y126.928 E17.42287
G1 X186.76 Y127.411 E17.44226
G1 X187.063 Y127.902 E17.46145
G1 X187.362 Y128.435 E17.48177
G1 X187.644 Y128.995 E17.50263
G1 X187.88 Y129.521 E17.5218
G1 X188.094 Y130.055 E17.54094
G1 X188.296 Y130.627 E17.56111
G1 X188.468 Y131.191 E17.58072
G1 X188.617 Y131.762 E17.60035
G1 X188.745 Y132.355 E17.62053
G1 X188.845 Y132.943 E17.64037
G1 X188.918 Y133.508 E17.65931
G1 X188.968 Y134.081 E17.67844
G1 X188.994 Y134.69 E17.69872
G1 X188.994 Y135.308 E17.71927
G1 X188.967 Y135.917 E17.73955
G1 X188.916 Y136.501 E17.75905
G1 X188.843 Y137.072 E17.77819
G1 X188.744 Y137.651 E17.79773
G1 X188.615 Y138.246 E17.81798
G1 X188.463 Y138.826 E17.83792
G1 X188.289 Y139.393 E17.85765
G1 X188.087 Y139.962 E17.87773
G1 X187.874 Y140.491 E17.8967
G1 X187.637 Y141.018 E17.91592
G1 X187.355 Y141.578 E17.93677
G1 X187.057 Y142.108 E17.95699
G1 X186.75 Y142.604 E17.9764
