;FLAVOR:Marlin
;TIME:5880
;Filament used: 3.20165m
;Layer height: 0.16
;MINX:127.828
;MINY:115.335
;MINZ:0.2
;MAXX:172.165
;MAXY:166.418
;MAXZ:14.96
;Generated with Cura_SteamEngine 4.9.1
M140 S50
M105
M190 S50
M104 S200
M105
M109 S200
M82 ;absolute extrusion mode
M201 X500.00 Y500.00 Z100.00 E5000.00 ;Setup machine max acceleration
M203 X500.00 Y500.00 Z10.00 E50.00 ;Setup machine max feedrate
M204 P500.00 R1000.00 T500.00 ;Setup Print/Retract/Travel acceleration
M205 X8.00 Y8.00 Z0.40 E5.00 ;Setup Jerk
M220 S100 ;Reset Feedrate
M221 S100 ;Reset Flowrate

G28 ;Home
G29 ;Auto bed Level

G92 E0 ;Reset Extruder
G1 Z2.0 F3000 ;Move Z Axis up
G1 X10.1 Y20 Z0.28 F5000.0 ;Move to start position
G1 X10.1 Y200.0 Z0.28 F1500.0 E15 ;Draw the first line
G1 X10.4 Y200.0 Z0.28 F5000.0 ;Move to side a little
G1 X10.4 Y20 Z0.28 F1500.0 E30 ;Draw the second line
G92 E0 ;Reset Extruder
G1 Z2.0 F3000 ;Move Z Axis up

G92 E0
G92 E0
G1 F2700 E-5
;LAYER_COUNT:86
;LAYER:0
M107
G0 F6000 X130.279 Y117.969 Z0.2
;TYPE:SKIRT
G1 F2700 E0
G1 F1200 X130.622 Y117.637 E0.01588
G1 X131.229 Y117.131 E0.04216
G1 X132.072 Y116.579 E0.07568
G1 X132.422 Y116.381 E0.08905
G1 X133.129 Y116.028 E0.11533
G1 X133.867 Y115.747 E0.1416
G1 X134.63 Y115.543 E0.16787
G1 X135.137 Y115.452 E0.185
G1 X135.37 Y115.418 E0.19283
G1 X136.496 Y115.336 E0.23038
G1 X163.499 Y115.335 E1.1285
G1 X163.848 Y115.343 E1.14012
G1 X164.634 Y115.416 E1.16637
G1 X165.277 Y115.536 E1.18813
G1 X165.576 Y115.605 E1.19833
G1 X166.335 Y115.821 E1.22458
G1 X166.901 Y116.038 E1.24474
G1 X167.612 Y116.383 E1.27102
G1 X168.1 Y116.675 E1.28994
G1 X168.342 Y116.832 E1.29953
G1 X168.982 Y117.295 E1.32581
G1 X169.763 Y118.016 E1.36116
G1 X169.798 Y118.053 E1.36285
G1 X170.311 Y118.653 E1.38911
G1 X170.921 Y119.572 E1.4258
G1 X171.119 Y119.922 E1.43917
G1 X171.472 Y120.629 E1.46545
G1 X171.695 Y121.194 E1.48566
G1 X171.71 Y121.237 E1.48717
G1 X171.932 Y121.995 E1.51344
G1 X172.106 Y123.03 E1.54835
G1 X172.126 Y123.23 E1.55503
G1 X172.165 Y124.006 E1.58088
G1 X172.165 Y137.999 E2.04629
G1 X172.131 Y138.727 E2.07053
G1 X171.974 Y139.729 E2.10426
G1 X171.908 Y140.023 E2.11428
G1 X171.655 Y140.87 E2.14368
G1 X171.718 Y141.051 E2.15006
G1 X171.939 Y141.808 E2.17629
G1 X172.117 Y142.88 E2.21243
G1 X172.13 Y143.017 E2.21701
G1 X172.165 Y143.754 E2.24155
G1 X172.165 Y157.751 E2.70709
G1 X172.131 Y158.479 E2.73133
G1 X171.974 Y159.481 E2.76506
G1 X171.908 Y159.775 E2.77508
G1 X171.6 Y160.806 E2.81087
G1 X171.588 Y160.838 E2.81201
G1 X171.274 Y161.562 E2.83826
G1 X170.859 Y162.297 E2.86633
G1 X170.7 Y162.546 E2.87616
G1 X170.242 Y163.189 E2.90241
G1 X169.721 Y163.783 E2.92869
G1 X169.378 Y164.115 E2.94457
G1 X168.771 Y164.621 E2.97085
G1 X167.936 Y165.168 E3.00405
G1 X167.587 Y165.366 E3.0174
G1 X166.881 Y165.721 E3.04368
G1 X166.259 Y165.964 E3.06589
G1 X166.218 Y165.978 E3.06733
G1 X165.458 Y166.195 E3.09362
G1 X164.492 Y166.355 E3.12619
G1 X164.287 Y166.376 E3.13304
G1 X163.492 Y166.417 E3.15952
G1 X136.497 Y166.418 E4.05738
G1 X135.466 Y166.35 E4.09174
G1 X135.436 Y166.346 E4.09275
G1 X134.357 Y166.123 E4.1294
G1 X133.962 Y166.012 E4.14304
G1 X133.213 Y165.76 E4.16933
G1 X132.494 Y165.434 E4.19558
G1 X132.059 Y165.191 E4.21216
G1 X132.014 Y165.164 E4.2139
G1 X131.358 Y164.724 E4.24017
G1 X130.49 Y163.969 E4.27844
G1 X130.241 Y163.718 E4.2902
G1 X129.713 Y163.13 E4.31648
G1 X129.174 Y162.376 E4.34731
G1 X129.152 Y162.341 E4.34868
G1 X128.601 Y161.296 E4.38797
G1 X128.512 Y161.091 E4.39541
G1 X128.235 Y160.352 E4.42166
G1 X127.978 Y159.295 E4.45784
G1 X127.94 Y159.072 E4.46536
G1 X127.847 Y158.288 E4.49162
G1 X127.829 Y157.758 E4.50926
G1 X127.836 Y143.746 E4.9753
G1 X127.844 Y143.401 E4.98678
G1 X127.917 Y142.615 E5.01303
G1 X128.036 Y141.974 E5.03472
G1 X128.104 Y141.679 E5.04478
G1 X128.32 Y140.919 E5.07106
G1 X128.337 Y140.874 E5.07266
G1 X128.234 Y140.599 E5.08243
G1 X128.116 Y140.186 E5.09672
G1 X127.959 Y139.437 E5.12217
G1 X127.924 Y139.216 E5.12961
G1 X127.84 Y138.431 E5.15587
G1 X127.828 Y137.992 E5.17048
G1 X127.836 Y123.994 E5.63605
G1 X127.873 Y123.237 E5.66126
G1 X128.021 Y122.299 E5.69284
G1 X128.086 Y122.004 E5.70289
G1 X128.294 Y121.242 E5.72916
G1 X128.508 Y120.671 E5.74944
G1 X128.846 Y119.957 E5.77572
G1 X129.141 Y119.455 E5.79508
G1 X129.3 Y119.206 E5.80491
G1 X129.758 Y118.563 E5.83117
G1 X130.279 Y117.969 E5.85745
G0 F6000 X130.855 Y117.966
G1 F1200 X130.894 Y117.93 E5.85921
G1 X131.485 Y117.439 E5.88477
G1 X132.269 Y116.927 E5.91591
G1 X132.619 Y116.729 E5.92929
G1 X133.308 Y116.386 E5.95488
G1 X134.028 Y116.116 E5.98046
G1 X134.772 Y115.922 E6.00603
G1 X135.194 Y115.848 E6.02028
G1 X135.427 Y115.814 E6.02812
G1 X136.496 Y115.736 E6.06376
G1 X163.499 Y115.735 E6.96189
G1 X163.831 Y115.742 E6.97293
G1 X164.597 Y115.814 E6.99852
G1 X165.187 Y115.926 E7.0185
G1 X165.486 Y115.995 E7.0287
G1 X166.225 Y116.206 E7.05426
G1 X166.745 Y116.407 E7.07281
G1 X167.437 Y116.743 E7.09839
G1 X167.883 Y117.011 E7.1157
G1 X168.125 Y117.168 E7.12529
G1 X168.747 Y117.62 E7.15087
G1 X169.473 Y118.291 E7.18375
G1 X169.508 Y118.328 E7.18544
G1 X170.007 Y118.913 E7.21102
G1 X170.573 Y119.769 E7.24515
G1 X170.771 Y120.119 E7.25852
G1 X171.114 Y120.808 E7.28412
G1 X171.317 Y121.326 E7.30262
G1 X171.332 Y121.369 E7.30414
G1 X171.547 Y122.107 E7.32971
G1 X171.708 Y123.07 E7.36218
G1 X171.728 Y123.27 E7.36887
G1 X171.765 Y124.006 E7.39338
G1 X171.765 Y137.999 E7.85878
G1 X171.733 Y138.691 E7.88183
G1 X171.583 Y139.642 E7.91385
G1 X171.517 Y139.936 E7.92387
G1 X171.235 Y140.883 E7.95673
G1 X171.34 Y141.182 E7.96727
G1 X171.555 Y141.921 E7.99287
G1 X171.719 Y142.918 E8.02648
G1 X171.732 Y143.055 E8.03105
G1 X171.765 Y143.754 E8.05433
G1 X171.765 Y157.751 E8.51987
G1 X171.733 Y158.443 E8.54291
G1 X171.583 Y159.394 E8.57493
G1 X171.517 Y159.688 E8.58495
G1 X171.226 Y160.665 E8.61886
G1 X171.214 Y160.697 E8.62
G1 X170.907 Y161.402 E8.64557
G1 X170.522 Y162.082 E8.67156
G1 X170.363 Y162.331 E8.68139
G1 X169.916 Y162.956 E8.70695
G1 X169.145 Y163.786 E8.74462
G1 X169.106 Y163.822 E8.74639
G1 X168.515 Y164.313 E8.77195
G1 X167.739 Y164.82 E8.80278
G1 X167.39 Y165.018 E8.81612
G1 X166.702 Y165.363 E8.84172
G1 X166.129 Y165.585 E8.86216
G1 X166.088 Y165.599 E8.8636
G1 X165.348 Y165.809 E8.88918
G1 X164.451 Y165.957 E8.91942
G1 X164.246 Y165.978 E8.92628
G1 X163.492 Y166.017 E8.95139
G1 X136.497 Y166.018 E9.84924
G1 X135.519 Y165.953 E9.88185
G1 X135.489 Y165.949 E9.88285
G1 X134.465 Y165.738 E9.91763
G1 X134.07 Y165.627 E9.93127
G1 X133.341 Y165.381 E9.95686
G1 X132.642 Y165.06 E9.98245
G1 X132.22 Y164.821 E9.99858
G1 X131.582 Y164.392 E10.02415
G1 X130.774 Y163.688 E10.05979
G1 X130.525 Y163.437 E10.07155
G1 X130.012 Y162.863 E10.09716
G1 X129.513 Y162.163 E10.12575
G1 X129.491 Y162.128 E10.12712
G1 X128.968 Y161.137 E10.16439
G1 X128.879 Y160.932 E10.17182
G1 X128.61 Y160.211 E10.19742
G1 X128.372 Y159.228 E10.23106
G1 X128.334 Y159.005 E10.23858
G1 X128.245 Y158.241 E10.26417
G1 X128.229 Y157.758 E10.28024
G1 X128.236 Y143.746 E10.74628
G1 X128.243 Y143.418 E10.75719
G1 X128.315 Y142.652 E10.78278
G1 X128.426 Y142.064 E10.80268
G1 X128.494 Y141.769 E10.81275
G1 X128.706 Y141.029 E10.83836
G1 X128.769 Y140.864 E10.84423
G1 X128.509 Y140.108 E10.87082
G1 X128.354 Y139.375 E10.89574
G1 X128.319 Y139.154 E10.90318
G1 X128.238 Y138.389 E10.92877
G1 X128.228 Y137.992 E10.94198
G1 X128.236 Y123.994 E11.40755
G1 X128.271 Y123.275 E11.43149
G1 X128.411 Y122.385 E11.46146
G1 X128.476 Y122.09 E11.47151
G1 X128.681 Y121.348 E11.49711
G1 X128.877 Y120.824 E11.51572
G1 X129.208 Y120.129 E11.54132
G1 X129.478 Y119.67 E11.55903
G1 X129.637 Y119.421 E11.56886
G1 X130.084 Y118.796 E11.59442
G1 X130.855 Y117.966 E11.63209
G0 F6000 X131.126 Y118.26
G1 F1200 X131.165 Y118.224 E11.63386
G1 X131.741 Y117.747 E11.65873
G1 X132.466 Y117.275 E11.68751
G1 X132.816 Y117.077 E11.70088
G1 X133.486 Y116.744 E11.72577
G1 X134.188 Y116.485 E11.75065
G1 X135.252 Y116.243 E11.78695
G1 X135.485 Y116.209 E11.79478
G1 X136.496 Y116.136 E11.82849
G1 X163.499 Y116.135 E12.72662
G1 X163.814 Y116.142 E12.73709
G1 X164.559 Y116.213 E12.76199
G1 X165.097 Y116.315 E12.7802
G1 X165.396 Y116.384 E12.7904
G1 X166.115 Y116.591 E12.81529
G1 X166.589 Y116.775 E12.8322
G1 X167.261 Y117.103 E12.85707
G1 X167.665 Y117.347 E12.87277
G1 X167.907 Y117.504 E12.88236
G1 X168.512 Y117.944 E12.90725
G1 X169.182 Y118.566 E12.93765
G1 X169.217 Y118.603 E12.93935
G1 X169.702 Y119.173 E12.96424
G1 X170.225 Y119.966 E12.99583
G1 X170.423 Y120.316 E13.00921
G1 X170.756 Y120.986 E13.03409
G1 X170.939 Y121.457 E13.0509
G1 X170.954 Y121.5 E13.05242
G1 X171.163 Y122.219 E13.07732
G1 X171.31 Y123.109 E13.10732
G1 X171.33 Y123.309 E13.11401
G1 X171.365 Y124.006 E13.13722
G1 X171.365 Y137.999 E13.60263
G1 X171.334 Y138.655 E13.62447
G1 X171.193 Y139.554 E13.65474
G1 X171.127 Y139.848 E13.66476
G1 X170.851 Y140.773 E13.69686
G1 X170.803 Y140.886 E13.70095
G1 X170.862 Y141.027 E13.70603
G1 X170.962 Y141.314 E13.71614
G1 X171.17 Y142.032 E13.741
G1 X171.321 Y142.956 E13.77214
G1 X171.334 Y143.093 E13.77672
G1 X171.365 Y143.754 E13.79873
G1 X171.365 Y157.751 E14.26427
G1 X171.334 Y158.407 E14.28611
G1 X171.193 Y159.306 E14.31638
G1 X171.127 Y159.6 E14.3264
G1 X170.851 Y160.525 E14.35851
G1 X170.839 Y160.557 E14.35965
G1 X170.54 Y161.242 E14.3845
G1 X170.185 Y161.866 E14.40838
G1 X170.026 Y162.115 E14.41821
G1 X169.59 Y162.723 E14.44309
G1 X168.874 Y163.492 E14.47804
G1 X168.835 Y163.528 E14.4798
G1 X168.259 Y164.005 E14.50468
G1 X167.541 Y164.472 E14.53317
G1 X167.192 Y164.67 E14.54651
G1 X166.523 Y165.004 E14.57138
G1 X166 Y165.206 E14.59003
G1 X165.959 Y165.22 E14.59147
G1 X165.239 Y165.424 E14.61636
G1 X164.41 Y165.56 E14.6443
G1 X164.205 Y165.581 E14.65116
G1 X163.492 Y165.617 E14.6749
G1 X136.497 Y165.618 E15.57276
G1 X135.572 Y165.557 E15.60359
G1 X135.542 Y165.553 E15.6046
G1 X134.573 Y165.353 E15.63751
G1 X134.178 Y165.242 E15.65115
G1 X133.47 Y165.001 E15.67603
G1 X132.471 Y164.505 E15.71312
G1 X132.426 Y164.478 E15.71487
G1 X131.806 Y164.06 E15.73974
G1 X131.057 Y163.406 E15.77281
G1 X130.808 Y163.155 E15.78457
G1 X130.311 Y162.596 E15.80945
G1 X129.852 Y161.95 E15.83581
G1 X129.83 Y161.915 E15.83718
G1 X129.335 Y160.978 E15.87243
G1 X129.246 Y160.773 E15.87986
G1 X128.985 Y160.072 E15.90474
G1 X128.766 Y159.161 E15.9359
G1 X128.728 Y158.938 E15.94343
G1 X128.642 Y158.195 E15.9683
G1 X128.629 Y157.759 E15.98281
G1 X128.636 Y143.747 E16.44885
G1 X128.643 Y143.435 E16.45923
G1 X128.714 Y142.69 E16.48412
G1 X128.816 Y142.154 E16.50227
G1 X128.884 Y141.859 E16.51234
G1 X129.091 Y141.14 E16.53723
G1 X129.194 Y140.872 E16.54678
G1 X128.896 Y140.007 E16.5772
G1 X128.749 Y139.312 E16.60083
G1 X128.714 Y139.091 E16.60827
G1 X128.628 Y137.992 E16.64494
G1 X128.636 Y123.994 E17.11051
G1 X128.67 Y123.313 E17.13319
G1 X128.802 Y122.471 E17.16154
G1 X128.867 Y122.176 E17.17159
G1 X129.067 Y121.455 E17.19647
G1 X129.247 Y120.977 E17.21346
G1 X129.569 Y120.302 E17.23834
G1 X129.815 Y119.886 E17.25441
G1 X129.974 Y119.637 E17.26424
G1 X130.41 Y119.029 E17.28912
G1 X131.126 Y118.26 E17.32407
G0 F6000 X131.397 Y118.554
G1 F1200 X131.436 Y118.518 E17.32583
G1 X131.996 Y118.056 E17.34998
G1 X132.663 Y117.624 E17.37641
G1 X133.013 Y117.426 E17.38978
G1 X133.664 Y117.103 E17.41396
G1 X134.347 Y116.854 E17.43813
G1 X135.31 Y116.639 E17.47095
G1 X135.543 Y116.605 E17.47878
G1 X136.496 Y116.536 E17.51056
G1 X163.499 Y116.535 E18.40869
G1 X163.798 Y116.542 E18.41864
G1 X164.521 Y116.612 E18.44279
G1 X165.007 Y116.705 E18.45925
G1 X165.306 Y116.774 E18.46946
G1 X166.004 Y116.976 E18.49363
G1 X166.433 Y117.143 E18.50894
G1 X167.085 Y117.463 E18.5331
G1 X167.447 Y117.682 E18.54717
G1 X167.689 Y117.839 E18.55676
G1 X168.276 Y118.267 E18.58092
G1 X168.892 Y118.84 E18.60891
G1 X168.927 Y118.877 E18.6106
G1 X169.396 Y119.432 E18.63477
G1 X169.876 Y120.163 E18.66385
G1 X170.074 Y120.513 E18.67723
G1 X170.397 Y121.164 E18.7014
G1 X170.562 Y121.589 E18.71656
G1 X170.577 Y121.632 E18.71808
G1 X170.778 Y122.33 E18.74224
G1 X170.912 Y123.149 E18.76984
G1 X170.932 Y123.349 E18.77652
G1 X170.965 Y124.006 E18.7984
G1 X170.965 Y137.999 E19.26381
G1 X170.936 Y138.619 E19.28446
G1 X170.803 Y139.467 E19.31301
G1 X170.737 Y139.761 E19.32303
G1 X170.477 Y140.632 E19.35326
G1 X170.37 Y140.881 E19.36227
G1 X170.485 Y141.158 E19.37225
G1 X170.585 Y141.445 E19.38236
G1 X170.785 Y142.143 E19.40651
G1 X170.922 Y142.994 E19.43518
G1 X170.935 Y143.131 E19.43975
G1 X170.965 Y143.754 E19.4605
G1 X170.965 Y157.751 E19.92604
G1 X170.936 Y158.371 E19.94669
G1 X170.803 Y159.219 E19.97523
G1 X170.737 Y159.513 E19.98526
G1 X170.477 Y160.384 E20.01549
G1 X170.465 Y160.416 E20.01663
G1 X170.173 Y161.081 E20.04078
G1 X169.848 Y161.651 E20.06261
G1 X169.689 Y161.9 E20.07243
G1 X169.265 Y162.49 E20.0966
G1 X168.603 Y163.198 E20.12884
G1 X168.564 Y163.234 E20.1306
G1 X168.004 Y163.696 E20.15475
G1 X167.344 Y164.124 E20.18091
G1 X166.995 Y164.322 E20.19426
G1 X166.344 Y164.646 E20.21844
G1 X165.871 Y164.828 E20.2353
G1 X165.83 Y164.842 E20.23674
G1 X165.13 Y165.038 E20.26092
G1 X164.37 Y165.162 E20.28653
G1 X164.165 Y165.183 E20.29338
G1 X163.492 Y165.217 E20.3158
G1 X136.497 Y165.218 E21.21365
G1 X135.625 Y165.16 E21.24272
G1 X135.595 Y165.156 E21.24373
G1 X134.681 Y164.968 E21.27476
G1 X134.286 Y164.857 E21.28841
G1 X133.599 Y164.622 E21.31256
G1 X132.676 Y164.162 E21.34686
G1 X132.631 Y164.135 E21.3486
G1 X132.03 Y163.728 E21.37275
G1 X131.341 Y163.124 E21.40322
G1 X131.092 Y162.873 E21.41498
G1 X130.61 Y162.33 E21.43913
G1 X130.19 Y161.737 E21.4633
G1 X130.168 Y161.702 E21.46467
G1 X129.702 Y160.818 E21.49791
G1 X129.613 Y160.613 E21.50534
G1 X129.361 Y159.932 E21.52949
G1 X129.161 Y159.094 E21.55815
G1 X129.123 Y158.871 E21.56567
G1 X129.04 Y158.149 E21.58985
G1 X129.029 Y157.759 E21.60282
G1 X129.036 Y143.747 E22.06886
G1 X129.043 Y143.451 E22.07871
G1 X129.113 Y142.728 E22.10287
G1 X129.206 Y142.244 E22.11926
G1 X129.274 Y141.949 E22.12933
G1 X129.476 Y141.251 E22.1535
G1 X129.619 Y140.879 E22.16676
G1 X129.283 Y139.906 E22.20099
G1 X129.144 Y139.249 E22.22333
G1 X129.109 Y139.028 E22.23077
G1 X129.028 Y137.992 E22.26533
G1 X129.036 Y123.994 E22.73091
G1 X129.068 Y123.351 E22.75232
G1 X129.193 Y122.557 E22.77906
G1 X129.258 Y122.262 E22.7891
G1 X129.453 Y121.562 E22.81327
G1 X129.616 Y121.129 E22.82866
G1 X129.931 Y120.475 E22.8528
G1 X130.152 Y120.101 E22.86725
G1 X130.311 Y119.852 E22.87708
G1 X130.735 Y119.262 E22.90124
G1 X131.397 Y118.554 E22.93348
G0 F6000 X131.669 Y118.848
G1 F1200 X131.708 Y118.812 E22.93525
G1 X132.251 Y118.365 E22.95864
G1 X132.86 Y117.972 E22.98275
G1 X133.21 Y117.774 E22.99612
G1 X133.842 Y117.462 E23.01956
G1 X134.504 Y117.225 E23.04295
G1 X135.368 Y117.035 E23.07237
G1 X135.601 Y117.001 E23.08021
G1 X136.496 Y116.936 E23.11005
G1 X163.499 Y116.935 E24.00817
G1 X163.781 Y116.941 E24.01756
G1 X164.482 Y117.011 E24.04099
G1 X164.917 Y117.095 E24.05572
G1 X165.216 Y117.164 E24.06593
G1 X165.892 Y117.361 E24.08935
G1 X166.276 Y117.511 E24.10306
G1 X166.908 Y117.823 E24.1265
G1 X167.229 Y118.018 E24.13899
G1 X167.471 Y118.175 E24.14859
G1 X168.039 Y118.591 E24.17201
G1 X168.601 Y119.115 E24.19756
G1 X168.636 Y119.152 E24.19926
G1 X169.09 Y119.69 E24.22267
G1 X169.528 Y120.36 E24.24929
G1 X169.726 Y120.71 E24.26267
G1 X170.038 Y121.342 E24.28611
G1 X170.199 Y121.764 E24.30113
G1 X170.393 Y122.441 E24.32456
G1 X170.514 Y123.189 E24.34976
G1 X170.534 Y123.389 E24.35644
G1 X170.565 Y124.006 E24.37699
G1 X170.565 Y137.999 E24.8424
G1 X170.538 Y138.582 E24.86181
G1 X170.412 Y139.379 E24.88865
G1 X170.346 Y139.673 E24.89867
G1 X170.102 Y140.492 E24.92709
G1 X170.09 Y140.524 E24.92823
G1 X169.935 Y140.875 E24.94099
G1 X170.107 Y141.29 E24.95593
G1 X170.207 Y141.577 E24.96604
G1 X170.4 Y142.254 E24.98946
G1 X170.524 Y143.031 E25.01563
G1 X170.537 Y143.168 E25.0202
G1 X170.565 Y143.754 E25.03972
G1 X170.565 Y157.751 E25.50526
G1 X170.538 Y158.334 E25.52467
G1 X170.412 Y159.131 E25.55151
G1 X170.346 Y159.425 E25.56153
G1 X170.102 Y160.244 E25.58995
G1 X170.09 Y160.276 E25.59109
G1 X169.806 Y160.92 E25.6145
