;FLAVOR:Marlin
;TIME:3377
;Filament used: 1.99004m
;Layer height: 0.16
;MINX:121.602
;MINY:121.602
;MINZ:0.2
;MAXX:178.398
;MAXY:178.398
;MAXZ:6.8
;Generated with Cura_SteamEngine 4.9.1
M140 S50
M105
M190 S50
M104 S200
M105
M109 S200
M82 ;absolute extrusion mode
M201 X500.00 Y500.00 Z100.00 E5000.00 ;Setup machine max acceleration
M203 X500.00 Y500.00 Z10.00 E50.00 ;Setup machine max feedrate
M204 P500.00 R1000.00 T500.00 ;Setup Print/Retract/Travel acceleration
M205 X8.00 Y8.00 Z0.40 E5.00 ;Setup Jerk
M220 S100 ;Reset Feedrate
M221 S100 ;Reset Flowrate

G28 ;Home
G29 ;Auto bed Level

G92 E0 ;Reset Extruder
G1 Z2.0 F3000 ;Move Z Axis up
G1 X10.1 Y20 Z0.28 F5000.0 ;Move to start position
G1 X10.1 Y200.0 Z0.28 F1500.0 E15 ;Draw the first line
G1 X10.4 Y200.0 Z0.28 F5000.0 ;Move to side a little
G1 X10.4 Y20 Z0.28 F1500.0 E30 ;Draw the second line
G92 E0 ;Reset Extruder
G1 Z2.0 F3000 ;Move Z Axis up

G92 E0
G92 E0
G1 F2700 E-5
;LAYER_COUNT:36
;LAYER:0
M107
G0 F6000 X129.947 Y129.854 Z0.2
;TYPE:SKIRT
G1 F2700 E0
G1 F1200 X130.239 Y129.567 E0.01362
G1 X130.83 Y129.043 E0.03989
G1 X131.47 Y128.581 E0.06614
G1 X131.498 Y128.565 E0.06721
G1 X131.803 Y128.224 E0.08243
G1 X132.623 Y127.505 E0.1187
G1 X133.006 Y127.215 E0.13468
G1 X133.327 Y126.978 E0.14795
G1 X133.985 Y126.542 E0.17421
G1 X134.684 Y126.174 E0.20048
G1 X134.727 Y126.157 E0.20202
G1 X134.956 Y125.956 E0.21215
G1 X135.6 Y125.499 E0.23842
G1 X136.002 Y125.261 E0.25396
G1 X136.425 Y125.026 E0.27005
G1 X136.779 Y124.836 E0.28341
G1 X137.493 Y124.499 E0.30967
G1 X138.237 Y124.235 E0.33593
G1 X138.267 Y124.228 E0.33695
G1 X138.742 Y123.941 E0.35541
G1 X139.627 Y123.536 E0.38778
G1 X140.133 Y123.343 E0.4058
G1 X140.511 Y123.206 E0.41917
G1 X141.266 Y122.975 E0.44543
G1 X142.041 Y122.821 E0.47171
G1 X142.228 Y122.732 E0.4786
G1 X142.971 Y122.467 E0.50483
G1 X143.492 Y122.33 E0.52275
G1 X144.063 Y122.202 E0.54222
G1 X144.468 Y122.12 E0.55596
G1 X145.249 Y122.003 E0.58223
G1 X146.008 Y121.966 E0.6075
G1 X146.225 Y121.899 E0.61505
G1 X146.999 Y121.743 E0.64131
G1 X147.578 Y121.678 E0.66069
G1 X148.051 Y121.644 E0.67647
G1 X148.456 Y121.619 E0.68996
G1 X149.246 Y121.61 E0.71624
G1 X150.028 Y121.681 E0.74236
G1 X150.289 Y121.641 E0.75114
G1 X151.078 Y121.602 E0.77741
G1 X151.559 Y121.618 E0.79342
G1 X152.09 Y121.652 E0.81112
G1 X152.482 Y121.683 E0.82419
G1 X153.265 Y121.785 E0.85046
G1 X154.034 Y121.966 E0.87673
G1 X154.066 Y121.977 E0.87786
G1 X154.441 Y121.979 E0.89033
G1 X155.595 Y122.132 E0.92905
G1 X156.113 Y122.241 E0.94666
G1 X156.497 Y122.328 E0.95975
G1 X157.257 Y122.541 E0.986
G1 X158 Y122.834 E1.01257
G1 X158.286 Y122.874 E1.02217
G1 X159.053 Y123.061 E1.04843
G1 X159.498 Y123.208 E1.06402
G1 X159.992 Y123.389 E1.08152
G1 X160.364 Y123.531 E1.09476
G1 X161.086 Y123.849 E1.121
G1 X161.773 Y124.239 E1.14727
G1 X161.795 Y124.255 E1.14818
G1 X162.1 Y124.344 E1.15875
G1 X162.831 Y124.641 E1.18499
G1 X163.214 Y124.833 E1.19924
G1 X163.675 Y125.08 E1.21663
G1 X164.024 Y125.274 E1.22992
G1 X164.694 Y125.693 E1.2562
G1 X165.318 Y126.176 E1.28244
G1 X165.339 Y126.196 E1.28341
G1 X165.861 Y126.455 E1.30279
G1 X166.668 Y126.975 E1.33472
G1 X167.102 Y127.295 E1.35265
G1 X167.417 Y127.536 E1.36585
G1 X168.019 Y128.047 E1.39211
G1 X168.564 Y128.614 E1.41827
G1 X168.749 Y128.729 E1.42551
G1 X169.373 Y129.212 E1.45176
G1 X169.772 Y129.578 E1.46977
G1 X170.155 Y129.958 E1.48771
G1 X170.442 Y130.251 E1.50135
G1 X170.966 Y130.842 E1.52762
G1 X171.428 Y131.488 E1.55404
G1 X171.769 Y131.794 E1.56928
G1 X172.484 Y132.608 E1.60531
G1 X172.719 Y132.917 E1.61822
G1 X173.027 Y133.335 E1.63549
G1 X173.463 Y133.994 E1.66177
G1 X173.83 Y134.693 E1.68803
G1 X173.84 Y134.717 E1.6889
G1 X174.158 Y135.101 E1.70548
G1 X174.722 Y135.971 E1.73996
G1 X174.973 Y136.424 E1.75719
G1 X175.159 Y136.77 E1.77026
G1 X175.497 Y137.483 E1.7965
G1 X175.762 Y138.227 E1.82277
G1 X175.774 Y138.275 E1.82441
G1 X175.986 Y138.611 E1.83763
G1 X176.481 Y139.667 E1.87642
G1 X176.655 Y140.128 E1.89281
G1 X176.791 Y140.502 E1.90604
G1 X177.023 Y141.257 E1.93231
G1 X177.18 Y142.048 E1.95913
G1 X177.282 Y142.266 E1.96714
G1 X177.544 Y143.011 E1.99341
G1 X177.669 Y143.492 E2.00994
G1 X177.79 Y144.029 E2.02824
G1 X177.872 Y144.424 E2.04166
G1 X177.993 Y145.204 E2.06792
G1 X178.035 Y145.989 E2.09406
G1 X178.055 Y146.049 E2.09617
G1 X178.229 Y146.819 E2.12242
G1 X178.321 Y147.568 E2.14752
G1 X178.354 Y148.004 E2.16206
G1 X178.381 Y148.408 E2.17553
G1 X178.393 Y149.197 E2.20178
G1 X178.326 Y149.984 E2.22805
G1 X178.352 Y150.215 E2.23578
G1 X178.398 Y151.003 E2.26203
G1 X178.383 Y151.552 E2.2803
G1 X178.348 Y152.087 E2.29813
G1 X178.317 Y152.481 E2.31128
G1 X178.215 Y153.264 E2.33754
G1 X178.035 Y154.033 E2.36381
G1 X178.023 Y154.068 E2.36504
G1 X178.018 Y154.491 E2.37911
G1 X177.868 Y155.597 E2.41623
G1 X177.76 Y156.11 E2.43367
G1 X177.672 Y156.498 E2.4469
G1 X177.458 Y157.259 E2.47319
G1 X177.169 Y157.993 E2.49943
G1 X177.156 Y158.017 E2.50034
G1 X177.094 Y158.424 E2.51403
G1 X176.781 Y159.529 E2.55223
G1 X176.614 Y159.984 E2.56835
G1 X176.472 Y160.357 E2.58162
G1 X176.154 Y161.08 E2.60789
G1 X175.764 Y161.767 E2.63417
G1 X175.749 Y161.788 E2.63503
G1 X175.502 Y162.497 E2.66
G1 X175.148 Y163.251 E2.6877
G1 X174.92 Y163.675 E2.70371
G1 X174.726 Y164.024 E2.71699
G1 X174.307 Y164.694 E2.74328
G1 X173.824 Y165.318 E2.76952
G1 X173.804 Y165.339 E2.77049
G1 X173.545 Y165.861 E2.78987
G1 X173.025 Y166.668 E2.8218
G1 X172.705 Y167.102 E2.83973
G1 X172.464 Y167.417 E2.85293
G1 X171.953 Y168.019 E2.87919
G1 X171.386 Y168.564 E2.90535
G1 X171.271 Y168.749 E2.91259
G1 X170.788 Y169.373 E2.93884
G1 X170.432 Y169.762 E2.95638
G1 X170.151 Y170.048 E2.96971
G1 X169.74 Y170.451 E2.98886
G1 X169.148 Y170.973 E3.01511
G1 X168.519 Y171.424 E3.04085
G1 X168.09 Y171.883 E3.06175
G1 X167.383 Y172.49 E3.09274
G1 X166.996 Y172.783 E3.10888
G1 X166.674 Y173.021 E3.1222
G1 X166.016 Y173.457 E3.14845
G1 X165.317 Y173.825 E3.17473
G1 X165.287 Y173.837 E3.1758
G1 X165.084 Y174.016 E3.18481
G1 X164.442 Y174.476 E3.21107
G1 X164.001 Y174.739 E3.22815
G1 X163.585 Y174.968 E3.24395
G1 X163.236 Y175.156 E3.25713
G1 X162.523 Y175.495 E3.28339
G1 X161.779 Y175.76 E3.30966
G1 X161.739 Y175.77 E3.31103
G1 X161.139 Y176.12 E3.33413
G1 X160.329 Y176.482 E3.36364
G1 X159.873 Y176.655 E3.37986
G1 X159.496 Y176.792 E3.3932
G1 X158.741 Y177.024 E3.41947
G1 X157.967 Y177.178 E3.44572
G1 X157.734 Y177.282 E3.45421
G1 X156.989 Y177.544 E3.48047
G1 X156.508 Y177.669 E3.497
G1 X155.971 Y177.79 E3.51531
G1 X155.576 Y177.872 E3.52873
G1 X154.796 Y177.993 E3.55498
G1 X154.016 Y178.035 E3.58096
G1 X153.288 Y178.209 E3.60586
G1 X152.439 Y178.32 E3.63434
G1 X151.959 Y178.356 E3.65035
G1 X151.547 Y178.382 E3.66408
G1 X150.758 Y178.391 E3.69032
G1 X149.975 Y178.321 E3.71647
G1 X149.785 Y178.352 E3.72287
G1 X148.997 Y178.398 E3.74912
G1 X148.448 Y178.383 E3.76739
G1 X147.91 Y178.348 E3.78532
G1 X147.518 Y178.317 E3.7984
G1 X146.735 Y178.215 E3.82466
G1 X145.966 Y178.034 E3.85094
G1 X145.934 Y178.023 E3.85207
G1 X145.559 Y178.021 E3.86454
G1 X144.405 Y177.868 E3.90326
G1 X143.892 Y177.76 E3.92069
G1 X143.498 Y177.671 E3.93413
G1 X142.738 Y177.459 E3.96037
G1 X142.003 Y177.17 E3.98664
G1 X141.985 Y177.161 E3.98731
G1 X141.394 Y177.055 E4.00728
G1 X140.507 Y176.793 E4.03804
G1 X140.139 Y176.66 E4.05105
G1 X139.59 Y176.449 E4.07062
G1 X138.87 Y176.127 E4.09685
G1 X138.223 Y175.755 E4.12167
G1 X137.56 Y175.528 E4.14498
G1 X136.758 Y175.153 E4.17443
G1 X136.324 Y174.919 E4.19083
G1 X135.977 Y174.726 E4.20403
G1 X135.307 Y174.307 E4.23032
G1 X134.683 Y173.823 E4.25658
G1 X134.656 Y173.797 E4.25783
G1 X134.397 Y173.681 E4.26727
G1 X133.712 Y173.286 E4.29357
G1 X133.327 Y173.021 E4.30911
G1 X132.912 Y172.714 E4.32628
G1 X132.597 Y172.474 E4.33945
G1 X131.994 Y171.965 E4.3657
G1 X131.434 Y171.383 E4.39256
G1 X131.004 Y171.091 E4.40985
G1 X130.233 Y170.426 E4.44371
G1 X129.851 Y170.049 E4.46157
G1 X129.567 Y169.76 E4.47504
G1 X129.042 Y169.17 E4.50131
G1 X128.58 Y168.529 E4.52759
G1 X128.564 Y168.501 E4.52866
G1 X128.224 Y168.197 E4.54383
G1 X127.505 Y167.377 E4.5801
G1 X127.208 Y166.985 E4.59646
G1 X126.971 Y166.663 E4.60976
G1 X126.536 Y166.004 E4.63602
G1 X126.169 Y165.304 E4.66231
G1 X126.157 Y165.273 E4.66342
G1 X125.956 Y165.044 E4.67355
G1 X125.499 Y164.4 E4.69982
G1 X125.26 Y163.997 E4.7154
G1 X125.021 Y163.565 E4.73182
G1 X124.831 Y163.21 E4.74521
G1 X124.494 Y162.495 E4.7715
G1 X124.231 Y161.751 E4.79775
G1 X124.225 Y161.728 E4.79854
G1 X123.995 Y161.357 E4.81306
G1 X123.535 Y160.371 E4.84924
G1 X123.34 Y159.86 E4.86744
G1 X123.204 Y159.484 E4.88074
G1 X122.973 Y158.729 E4.907
G1 X122.821 Y157.959 E4.9331
G1 X122.749 Y157.81 E4.9386
G1 X122.479 Y157.068 E4.96487
G1 X122.331 Y156.512 E4.984
G1 X122.24 Y156.112 E4.99765
G1 X122.121 Y155.535 E5.01724
G1 X122.003 Y154.754 E5.04351
G1 X121.966 Y153.98 E5.06929
G1 X121.838 Y153.512 E5.08542
G1 X121.679 Y152.424 E5.12199
G1 X121.644 Y151.949 E5.13784
G1 X121.619 Y151.544 E5.15133
G1 X121.61 Y150.754 E5.17761
G1 X121.68 Y149.975 E5.20362
G1 X121.644 Y149.741 E5.2115
G1 X121.602 Y148.952 E5.23778
G1 X121.618 Y148.439 E5.25485
G1 X121.652 Y147.91 E5.27248
G1 X121.683 Y147.518 E5.28556
G1 X121.785 Y146.735 E5.31182
G1 X121.966 Y145.966 E5.3381
G1 X121.977 Y145.934 E5.33922
G1 X121.982 Y145.509 E5.35336
G1 X122.132 Y144.403 E5.39048
G1 X122.239 Y143.895 E5.40775
G1 X122.329 Y143.497 E5.42132
G1 X122.542 Y142.736 E5.4476
G1 X122.831 Y142.001 E5.47387
G1 X122.837 Y141.99 E5.47429
G1 X122.953 Y141.358 E5.49566
G1 X123.21 Y140.5 E5.52545
G1 X123.401 Y139.977 E5.54397
G1 X123.548 Y139.597 E5.55752
G1 X123.87 Y138.876 E5.58378
G1 X124.246 Y138.221 E5.6089
G1 X124.472 Y137.56 E5.63214
G1 X124.855 Y136.743 E5.66215
G1 X125.069 Y136.347 E5.67712
G1 X125.261 Y135.999 E5.69034
G1 X125.677 Y135.328 E5.7166
G1 X126.199 Y134.649 E5.74508
G1 X126.3 Y134.425 E5.75326
G1 X126.693 Y133.74 E5.77952
G1 X126.971 Y133.337 E5.79581
G1 X127.284 Y132.914 E5.81331
G1 X127.523 Y132.6 E5.82643
G1 X128.033 Y131.996 E5.85273
G1 X128.61 Y131.441 E5.87935
G1 X128.726 Y131.255 E5.88664
G1 X129.209 Y130.631 E5.91289
G1 X129.557 Y130.251 E5.93003
G1 X129.947 Y129.854 E5.94854
G0 F6000 X130.228 Y130.139
G1 F1200 X130.52 Y129.852 E5.96215
G1 X131.096 Y129.342 E5.98774
G1 X131.721 Y128.895 E6.0133
G1 X131.748 Y128.88 E6.01433
G1 X132.186 Y128.408 E6.03574
G1 X132.865 Y127.824 E6.06553
G1 X133.244 Y127.537 E6.08134
G1 X133.565 Y127.3 E6.09461
G1 X134.206 Y126.876 E6.12018
G1 X134.889 Y126.521 E6.14578
G1 X134.94 Y126.501 E6.1476
G1 X135.315 Y126.185 E6.16391
G1 X136.196 Y125.61 E6.1989
G1 X136.614 Y125.379 E6.21479
G1 X136.968 Y125.189 E6.22815
G1 X137.664 Y124.861 E6.25374
G1 X138.39 Y124.607 E6.27932
G1 X138.408 Y124.603 E6.27994
G1 X139.073 Y124.22 E6.30546
G1 X139.771 Y123.909 E6.33088
G1 X140.269 Y123.719 E6.3486
G1 X140.647 Y123.582 E6.36198
G1 X141.383 Y123.358 E6.38756
G1 X142.138 Y123.211 E6.41315
G1 X142.16 Y123.209 E6.41388
G1 X142.492 Y123.057 E6.42603
G1 X143.581 Y122.72 E6.46394
G1 X144.143 Y122.594 E6.4831
G1 X144.548 Y122.512 E6.49684
G1 X145.308 Y122.399 E6.5224
G1 X146.075 Y122.365 E6.54793
G1 X146.46 Y122.253 E6.56127
G1 X147.217 Y122.116 E6.58686
G1 X147.608 Y122.077 E6.59992
G1 X148.076 Y122.043 E6.61553
G1 X148.481 Y122.018 E6.62903
G1 X149.25 Y122.011 E6.65461
G1 X150.028 Y122.085 E6.6806
G1 X150.449 Y122.028 E6.69473
G1 X151.533 Y122.017 E6.73078
G1 X152.058 Y122.051 E6.74828
G1 X152.45 Y122.082 E6.76136
G1 X153.213 Y122.182 E6.78696
G1 X153.961 Y122.361 E6.81254
G1 X153.998 Y122.374 E6.81384
G1 X154.578 Y122.39 E6.83314
G1 X155.513 Y122.523 E6.86455
G1 X156.024 Y122.631 E6.88192
G1 X156.408 Y122.718 E6.89502
G1 X157.148 Y122.927 E6.92059
G1 X157.863 Y123.211 E6.94618
G1 X157.883 Y123.221 E6.94693
G1 X158.328 Y123.29 E6.9619
G1 X159.361 Y123.584 E6.99763
G1 X159.849 Y123.763 E7.01491
G1 X160.221 Y123.905 E7.02816
G1 X160.924 Y124.216 E7.05372
G1 X161.592 Y124.598 E7.07932
G1 X161.623 Y124.621 E7.0806
G1 X162.081 Y124.762 E7.09654
G1 X163.025 Y125.185 E7.13095
G1 X163.48 Y125.43 E7.14813
G1 X163.829 Y125.624 E7.16142
G1 X164.481 Y126.032 E7.187
G1 X165.087 Y126.506 E7.21259
G1 X165.122 Y126.528 E7.21396
G1 X165.804 Y126.883 E7.23953
G1 X166.431 Y127.297 E7.26452
G1 X166.859 Y127.613 E7.28222
G1 X167.174 Y127.854 E7.29541
G1 X167.759 Y128.352 E7.32096
G1 X168.29 Y128.909 E7.34656
G1 X168.299 Y128.921 E7.34706
G1 X168.618 Y129.126 E7.35967
G1 X169.491 Y129.863 E7.39767
G1 X169.869 Y130.238 E7.41538
G1 X170.156 Y130.531 E7.42902
G1 X170.665 Y131.108 E7.45461
G1 X171.113 Y131.736 E7.48027
G1 X171.6 Y132.191 E7.50243
G1 X172.165 Y132.85 E7.53131
G1 X172.467 Y133.249 E7.54795
G1 X172.705 Y133.572 E7.56129
G1 X173.129 Y134.214 E7.58688
G1 X173.483 Y134.897 E7.61247
G1 X173.489 Y134.912 E7.61301
G1 X173.932 Y135.469 E7.63668
G1 X174.373 Y136.166 E7.66411
G1 X174.621 Y136.613 E7.68111
G1 X174.807 Y136.959 E7.69418
G1 X175.135 Y137.655 E7.71977
G1 X175.39 Y138.38 E7.74533
G1 X175.402 Y138.432 E7.74711
G1 X175.705 Y138.93 E7.76649
G1 X176.107 Y139.809 E7.79864
G1 X176.279 Y140.265 E7.81485
G1 X176.415 Y140.639 E7.82809
G1 X176.64 Y141.375 E7.85369
G1 X176.788 Y142.13 E7.87928
G1 X176.791 Y142.164 E7.88041
G1 X176.956 Y142.529 E7.89373
G1 X177.279 Y143.581 E7.93034
G1 X177.399 Y144.11 E7.94838
G1 X177.481 Y144.505 E7.9618
G1 X177.598 Y145.265 E7.98737
G1 X177.635 Y146.033 E8.01294
G1 X177.706 Y146.291 E8.02184
G1 X177.86 Y147.045 E8.04744
G1 X177.922 Y147.598 E8.06595
G1 X177.955 Y148.031 E8.08039
G1 X177.982 Y148.435 E8.09386
G1 X177.993 Y149.204 E8.11944
G1 X177.924 Y149.97 E8.14502
G1 X177.914 Y150.021 E8.14675
G1 X177.966 Y150.378 E8.15875
G1 X177.983 Y151.527 E8.19697
G1 X177.949 Y152.055 E8.21456
G1 X177.918 Y152.449 E8.22771
G1 X177.818 Y153.212 E8.2533
G1 X177.639 Y153.96 E8.27888
G1 X177.628 Y153.992 E8.28001
G1 X177.607 Y154.626 E8.30111
G1 X177.477 Y155.515 E8.33099
G1 X177.37 Y156.022 E8.34823
G1 X177.282 Y156.41 E8.36146
G1 X177.073 Y157.15 E8.38703
G1 X176.788 Y157.865 E8.41263
G1 X176.774 Y157.892 E8.41365
G1 X176.673 Y158.48 E8.43349
G1 X176.405 Y159.391 E8.46507
G1 X176.24 Y159.842 E8.48105
G1 X176.098 Y160.215 E8.49432
G1 X175.787 Y160.918 E8.51989
G1 X175.405 Y161.586 E8.54548
G1 X175.344 Y161.754 E8.55143
G1 X175.078 Y162.476 E8.57702
G1 X174.795 Y163.062 E8.59866
G1 X174.57 Y163.48 E8.61445
G1 X174.376 Y163.829 E8.62773
G1 X173.968 Y164.481 E8.65331
G1 X173.494 Y165.087 E8.6789
G1 X173.472 Y165.122 E8.68028
G1 X173.117 Y165.804 E8.70585
G1 X172.703 Y166.431 E8.73084
G1 X172.387 Y166.859 E8.74854
G1 X172.146 Y167.174 E8.76173
G1 X171.648 Y167.759 E8.78728
G1 X171.091 Y168.29 E8.81287
G1 X171.079 Y168.299 E8.81337
G1 X170.874 Y168.618 E8.82599
G1 X170.147 Y169.481 E8.86352
G1 X169.757 Y169.876 E8.88198
G1 X169.461 Y170.165 E8.89574
G1 X168.883 Y170.673 E8.92133
G1 X168.266 Y171.111 E8.9465
G1 X168.232 Y171.154 E8.94832
G1 X167.696 Y171.706 E8.97391
G1 X167.141 Y172.172 E8.99802
G1 X166.758 Y172.461 E9.01397
G1 X166.436 Y172.699 E9.02729
G1 X165.795 Y173.123 E9.05285
G1 X165.113 Y173.479 E9.07844
G1 X165.069 Y173.497 E9.08002
G1 X164.709 Y173.801 E9.09569
G1 X163.807 Y174.389 E9.13151
G1 X163.395 Y174.616 E9.14715
G1 X163.046 Y174.804 E9.16034
G1 X162.351 Y175.133 E9.18591
G1 X161.626 Y175.388 E9.21147
G1 X161.502 Y175.452 E9.21612
G1 X160.83 Y175.828 E9.24173
G1 X160.187 Y176.108 E9.26505
G1 X159.736 Y176.279 E9.2811
G1 X159.359 Y176.416 E9.29444
G1 X158.624 Y176.641 E9.32
G1 X157.869 Y176.788 E9.34559
G1 X157.836 Y176.791 E9.34669
G1 X157.471 Y176.956 E9.36001
G1 X156.419 Y177.279 E9.39661
G1 X155.89 Y177.399 E9.41465
G1 X155.495 Y177.481 E9.42807
G1 X154.735 Y177.598 E9.45365
G1 X153.967 Y177.635 E9.47922
G1 X153.808 Y177.679 E9.48471
G1 X153.057 Y177.843 E9.51027
G1 X152.409 Y177.921 E9.53198
G1 X151.934 Y177.956 E9.54782
G1 X151.522 Y177.982 E9.56155
G1 X150.753 Y177.991 E9.58713
G1 X149.987 Y177.919 E9.61272
G1 X149.969 Y177.915 E9.61334
G1 X149.622 Y177.966 E9.625
G1 X148.473 Y177.983 E9.66322
G1 X147.942 Y177.949 E9.68092
G1 X147.55 Y177.918 E9.694
G1 X146.787 Y177.818 E9.71959
G1 X146.039 Y177.639 E9.74517
